luts/时尚电影.cube
#Created by: Adobe Photoshop Export Color Lookup Plugin
#Copyright: (C) Copyright 2022 Tim Martin and Presetpro.com
TITLE "Presetpro - Fashion Film.jpg"
#LUT size
LUT_3D_SIZE 8
#data domain
#LUT data points
DOMAIN_MIN 0.000000 0.000000 0.000000
DOMAIN_MAX 0.903226 0.903226 0.903226
0.000000 0.000000 0.000000
0.087280 0.004944 0.001007
0.198090 0.007843 0.001007
0.343323 0.000000 0.002411
0.514130 0.000000 0.000000
0.675415 0.000000 0.002533
0.813049 0.003052 0.003052
0.940033 0.003540 0.000000
0.006836 0.107910 0.024536
0.096649 0.104492 0.021118
0.215820 0.108398 0.000519
0.369385 0.102966 0.006317
0.527771 0.083862 0.006836
0.680206 0.055511 0.004791
0.820892 0.045410 0.000519
0.947632 0.088165 0.006073
0.000000 0.267792 0.056915
0.087280 0.262878 0.051483
0.244263 0.256042 0.032501
0.398712 0.248199 0.002014
0.559143 0.240356 0.000000
0.705139 0.240845 0.000000
0.828857 0.250092 0.003052
0.952423 0.264893 0.007843
0.002411 0.452240 0.113739
0.000000 0.449310 0.104492
0.248688 0.440979 0.093628
0.416931 0.436554 0.080566
0.565857 0.416809 0.036041
0.718903 0.406189 0.007599
0.846802 0.403656 0.000885
0.952179 0.413391 0.000000
0.001892 0.604187 0.180511
0.004059 0.602173 0.185455
0.265900 0.593445 0.166870
0.443909 0.586609 0.155762
0.592438 0.584595 0.153198
0.713989 0.564972 0.146881
0.845551 0.557251 0.006073
0.959656 0.558777 0.000000
0.070251 0.722961 0.287415
0.193695 0.719421 0.281219
0.337128 0.717407 0.278320
0.480560 0.707153 0.260223
0.614441 0.701721 0.269714
0.733093 0.701721 0.266418
0.835175 0.682983 0.277191
0.945740 0.679565 0.211395
0.339783 0.815186 0.411255
0.364594 0.815308 0.403168
0.443512 0.814056 0.402405
0.546997 0.808228 0.394073
0.654144 0.807220 0.378754
0.757111 0.802155 0.387238
0.853149 0.800385 0.393433
0.933472 0.792175 0.429474
0.538513 0.916138 0.554962
0.550171 0.905762 0.551178
0.584442 0.911194 0.539673
0.646667 0.907532 0.540161
0.715881 0.903229 0.536865
0.801910 0.904755 0.536743
0.879333 0.907776 0.543335
0.951813 0.908661 0.558502
0.015686 0.003418 0.087799
0.087799 0.003418 0.080444
0.199615 0.003937 0.079437
0.354065 0.008240 0.064270
0.517914 0.001526 0.041748
0.671722 0.003418 0.001007
0.817596 0.002533 0.000000
0.944336 0.000000 0.003052
0.000000 0.107391 0.122589
0.092712 0.108398 0.112335
0.221252 0.108398 0.097656
0.373291 0.101074 0.087280
0.539551 0.086395 0.048187
0.688049 0.065765 0.003418
0.816071 0.090820 0.000000
0.943970 0.123322 0.000000
0.000000 0.272217 0.157501
0.056305 0.265900 0.140289
0.240845 0.259949 0.138763
0.406555 0.249695 0.108398
0.559296 0.244263 0.059845
0.703094 0.237427 0.002899
0.830383 0.246796 0.002014
0.948761 0.270325 0.000885
0.004822 0.454620 0.189758
0.007843 0.453613 0.197083
0.249207 0.443878 0.177490
0.422882 0.441864 0.167358
0.575714 0.420349 0.140778
0.721832 0.409454 0.021851
0.846802 0.407196 0.002411
0.956238 0.412628 0.002014
0.003052 0.610504 0.251251
0.004303 0.603180 0.246185
0.264893 0.599243 0.225189
0.444916 0.590546 0.217468
0.590149 0.586975 0.220734
0.713470 0.570923 0.211029
0.844421 0.561676 0.117920
0.959900 0.555237 0.000000
0.087189 0.720428 0.329437
0.197754 0.719940 0.330811
0.335754 0.716522 0.318176
0.481598 0.710083 0.307159
0.615967 0.706146 0.305389
0.737000 0.701843 0.315521
0.840485 0.686401 0.316772
0.943329 0.686798 0.251740
0.343719 0.814789 0.442627
0.373566 0.820374 0.435669
0.449463 0.817322 0.431244
0.546997 0.811646 0.416840
0.656311 0.801270 0.407227
0.760162 0.804169 0.409485
0.857819 0.805206 0.426941
0.932190 0.796844 0.456665
0.535370 0.912598 0.563568
0.553833 0.909058 0.567108
0.587341 0.909943 0.564728
0.647705 0.905640 0.555847
0.718658 0.904755 0.547241
0.799744 0.904755 0.546875
0.879700 0.905243 0.562164
0.955597 0.907776 0.571533
0.015686 0.001007 0.205048
0.114746 0.003418 0.197205
0.202148 0.002899 0.192261
0.354187 0.001007 0.192261
0.532593 0.000000 0.163940
0.682617 0.000000 0.158356
0.819122 0.002014 0.133453
0.941803 0.002899 0.061066
0.000000 0.084381 0.238831
0.101562 0.098053 0.235931
0.225677 0.100067 0.223663
0.368469 0.104858 0.216309
0.543976 0.059845 0.195557
0.688049 0.071716 0.174561
0.824432 0.077789 0.138245
0.948273 0.111053 0.059174
0.000000 0.248199 0.276642
0.015167 0.252625 0.271851
0.244263 0.263885 0.275635
0.412903 0.263885 0.251099
0.565094 0.251221 0.222748
0.704254 0.247803 0.189484
0.832764 0.251221 0.153198
0.952179 0.263489 0.068787
0.000000 0.453247 0.322205
0.000000 0.455658 0.318787
0.235016 0.455139 0.309021
0.423767 0.446777 0.303589
0.586975 0.435028 0.266388
0.728149 0.415924 0.221222
0.844910 0.413025 0.172791
0.957764 0.414520 0.108521
0.000000 0.616821 0.354950
0.003937 0.609131 0.352692
0.255280 0.609131 0.345337
0.451233 0.597351 0.331055
0.595337 0.592407 0.334595
0.721344 0.574860 0.317383
0.847290 0.566132 0.251221
0.962036 0.556488 0.168610
0.106812 0.725098 0.423401
0.203552 0.731201 0.415436
0.339661 0.719940 0.411133
0.481567 0.713470 0.390137
0.616455 0.705627 0.386597
0.733093 0.705627 0.392395
0.834290 0.687531 0.396576
0.945221 0.688049 0.336243
0.354218 0.815063 0.498169
0.385193 0.817474 0.502838
0.456421 0.815063 0.490570
0.545471 0.812164 0.484375
0.652496 0.807983 0.466034
0.756622 0.805206 0.472473
0.849335 0.802277 0.473114
0.928406 0.795959 0.503601
0.536896 0.910431 0.596954
0.554596 0.912964 0.599487
0.592804 0.911194 0.601013
0.647186 0.906128 0.595581
0.717010 0.905396 0.580261
0.800507 0.903748 0.581909
0.875916 0.904358 0.593170
0.953186 0.907288 0.601654
0.000000 0.000000 0.351166
0.118774 0.003418 0.345337
0.241852 0.003418 0.341400
0.380127 0.000000 0.338501
0.532227 0.000000 0.330048
0.695526 0.001526 0.314331
0.833282 0.003937 0.278168
0.948639 0.001526 0.273102
0.001007 0.074524 0.377106
0.114746 0.068695 0.368744
0.257538 0.062225 0.369385
0.394287 0.046539 0.357483
0.546875 0.087158 0.350281
0.705139 0.025269 0.323669
0.838196 0.002533 0.289276
0.943939 0.140778 0.283844
0.001007 0.215302 0.411987
0.000000 0.214905 0.412506
0.249695 0.241364 0.400757
0.414032 0.248810 0.397827
0.569916 0.277161 0.386078
0.712463 0.257904 0.355957
0.829865 0.282959 0.333069
0.946869 0.280823 0.291687
0.004822 0.426300 0.452240
0.000000 0.431091 0.447418
0.213898 0.444397 0.448303
0.436554 0.460083 0.452240
0.592804 0.449188 0.421356
0.723724 0.439331 0.400116
0.839355 0.429352 0.368988
0.950684 0.423248 0.313843
0.000519 0.615448 0.492462
0.001892 0.617340 0.495117
0.244385 0.612549 0.479187
0.449677 0.611511 0.476135
0.599884 0.600281 0.476135
0.724884 0.589020 0.446442
0.853027 0.575714 0.394318
0.950165 0.563080 0.354553
0.073425 0.727783 0.525208
0.196106 0.726379 0.518402
0.334351 0.726135 0.519531
0.489929 0.723724 0.516235
0.622528 0.712463 0.493103
0.737000 0.710938 0.505005
0.838593 0.696899 0.494995
0.946381 0.688934 0.437958
0.342194 0.819366 0.568390
0.382812 0.821747 0.571777
0.458801 0.821899 0.576843
0.552429 0.817596 0.569885
0.652374 0.809113 0.549530
0.756622 0.806213 0.548615
0.851379 0.802155 0.558746
0.927521 0.798859 0.570404
0.532471 0.912598 0.651886
0.552704 0.913605 0.654022
0.591156 0.911713 0.651367
0.640594 0.909546 0.641113
0.711731 0.903992 0.634796
0.795074 0.905121 0.625305
0.871857 0.905884 0.633270
0.947876 0.905121 0.645172
0.002014 0.000000 0.496399
0.135864 0.000000 0.490479
0.263885 0.001007 0.488434
0.415924 0.002014 0.483124
0.557129 0.001892 0.476685
0.692352 0.003937 0.463531
0.844421 0.002014 0.469849
0.959656 0.001892 0.434174
0.000000 0.037811 0.503754
0.123596 0.029480 0.506165
0.270325 0.003906 0.501862
0.430603 0.000519 0.499176
0.571808 0.001526 0.494385
0.702850 0.046143 0.481110
0.844543 0.118927 0.473907
0.962708 0.107300 0.445435
0.004791 0.196350 0.536652
0.089325 0.215668 0.540436
0.273743 0.211731 0.528656
0.444244 0.213776 0.522339
0.585602 0.229584 0.514984
0.716370 0.290436 0.512207
0.845428 0.298431 0.499329
0.953461 0.286530 0.457703
0.000519 0.383026 0.564087
0.001526 0.384918 0.558136
0.207581 0.397308 0.570160
0.445282 0.424255 0.563446
0.601013 0.441986 0.555115
0.725006 0.476135 0.551849
0.840363 0.449341 0.517395
0.940796 0.452728 0.495239
0.000000 0.582550 0.588379
0.003418 0.581177 0.601288
0.247437 0.589508 0.595459
0.440979 0.603668 0.599762
0.614075 0.617859 0.608124
0.729034 0.598877 0.580170
0.837585 0.584595 0.548401
0.947876 0.566864 0.504120
0.041901 0.728668 0.638580
0.178253 0.730682 0.633148
0.328400 0.730682 0.632141
0.476776 0.727783 0.620392
0.623566 0.725616 0.619385
0.745483 0.720825 0.613190
0.839111 0.704742 0.592926
0.945343 0.690460 0.542969
0.315125 0.825806 0.658325
0.347137 0.824158 0.660492
0.427704 0.821747 0.654297
0.538513 0.822784 0.651611
0.649109 0.814941 0.644409
0.751190 0.806702 0.634552
0.849487 0.806061 0.641510
0.928284 0.802277 0.642029
0.466675 0.914612 0.689575
0.489685 0.916626 0.689575
0.542816 0.916901 0.698303
0.625397 0.917511 0.700439
0.703217 0.911072 0.696289
0.782532 0.907166 0.682373
0.865784 0.906403 0.686523
0.946381 0.908295 0.697052
0.063904 0.000000 0.620514
0.174469 0.000000 0.619629
0.305634 0.001007 0.615448
0.443878 0.000000 0.620392
0.599762 0.005951 0.610138
0.726379 0.000000 0.611511
0.835175 0.001007 0.591919
0.960419 0.140930 0.607727
0.101196 0.000000 0.628204
0.176849 0.001404 0.630096
0.307159 0.001404 0.631256
0.456146 0.000000 0.622253
0.609131 0.000519 0.623047
0.735382 0.001404 0.621887
0.842377 0.031738 0.603027
0.964722 0.232147 0.609619
0.065674 0.169617 0.650879
0.168884 0.172668 0.643402
0.307159 0.170776 0.650482
0.458557 0.164307 0.642883
0.615448 0.166718 0.636047
0.748901 0.200623 0.640503
0.842010 0.293335 0.622894
0.951813 0.360657 0.618347
0.000000 0.334442 0.668579
0.003540 0.335327 0.676788
0.286530 0.377594 0.668060
0.464996 0.383514 0.669067
0.619873 0.397339 0.665009
0.741943 0.425781 0.658691
0.839203 0.482971 0.652740
0.945343 0.489441 0.638092
0.000000 0.536499 0.686035
0.000519 0.538544 0.684631
0.221741 0.543335 0.690460
0.413391 0.555603 0.687408
0.606964 0.578766 0.688416
0.740540 0.600647 0.692719
0.837463 0.628601 0.681732
0.934082 0.596344 0.649841
0.082520 0.696411 0.716003
0.189758 0.696411 0.710052
0.321442 0.700317 0.715240
0.473755 0.704132 0.720306
0.615204 0.716888 0.723846
0.756622 0.735870 0.734467
0.841370 0.717773 0.709045
0.936127 0.700714 0.671112
0.296387 0.821381 0.747620
0.335754 0.823669 0.750153
0.421509 0.823669 0.752838
0.524841 0.826324 0.747620
0.634552 0.824280 0.737000
0.753571 0.822540 0.730560
0.846954 0.815582 0.732208
0.933838 0.805206 0.718933
0.444031 0.920441 0.774323
0.464661 0.918549 0.771179
0.513214 0.919037 0.771912
0.580750 0.917023 0.769653
0.671844 0.915497 0.760040
0.769379 0.912598 0.760529
0.859589 0.908295 0.748383
0.941437 0.908295 0.754456
0.165100 0.000885 0.744598
0.228577 0.003418 0.749664
0.359131 0.000000 0.742706
0.495117 0.000885 0.737000
0.632660 0.002899 0.741577
0.772797 0.000000 0.737274
0.886658 0.003052 0.737640
0.956604 0.003540 0.699432
0.219116 0.000000 0.749908
0.268188 0.002533 0.750427
0.366974 0.002899 0.744476
0.499146 0.000000 0.748383
0.639221 0.001404 0.744080
0.780029 0.002533 0.739655
0.885284 0.003937 0.744598
0.957367 0.046417 0.711823
0.202148 0.113831 0.763184
0.262482 0.108124 0.755096
0.362030 0.097015 0.757111
0.496643 0.073853 0.755737
0.640625 0.039917 0.751434
0.781555 0.053192 0.748535
0.882874 0.141266 0.748657
0.950531 0.299286 0.715240
0.108490 0.319794 0.769012
0.215973 0.328491 0.779144
0.351166 0.329895 0.774200
0.491455 0.333954 0.770538
0.632416 0.342804 0.763580
0.774841 0.360016 0.763550
0.878174 0.395813 0.765076
0.944336 0.474365 0.742462
0.000000 0.488434 0.775848
0.000000 0.488953 0.775330
0.191132 0.491608 0.780518
0.430939 0.513611 0.778503
0.607971 0.530579 0.776611
0.751312 0.547272 0.771790
0.859955 0.576874 0.770020
0.936493 0.622650 0.754700
0.000885 0.659210 0.799744
0.065796 0.660095 0.797974
0.259064 0.661499 0.795441
0.419617 0.662628 0.796600
0.570923 0.673767 0.793427
0.735870 0.692474 0.796326
0.851379 0.711578 0.793793
0.928894 0.738007 0.800140
0.280090 0.789520 0.812164
0.325500 0.792023 0.816071
0.402405 0.792419 0.814178
0.504089 0.796478 0.820007
0.620880 0.803040 0.816681
0.741425 0.813049 0.813538
0.856171 0.832642 0.832642
0.933075 0.816589 0.800751
0.415070 0.916504 0.855682
0.438446 0.916016 0.854919
0.487915 0.919037 0.854523
0.565460 0.917786 0.855682
0.652130 0.919922 0.849854
0.749268 0.919159 0.843536
0.845673 0.912598 0.836578
0.937012 0.910065 0.836700
0.268707 0.000000 0.865540
0.307648 0.003418 0.865540
0.415680 0.002899 0.869690
0.539001 0.002014 0.863495
0.680359 0.002014 0.860840
0.817596 0.003540 0.858307
0.934723 0.000366 0.854156
0.999237 0.000366 0.854156
0.306641 0.000366 0.872620
0.355103 0.000000 0.870087
0.439850 0.003052 0.869080
0.560150 0.000366 0.867035
0.688568 0.002411 0.865143
0.819885 0.000366 0.866150
0.935760 0.002899 0.858185
0.996948 0.003418 0.864655
0.328278 0.000000 0.870209
0.364441 0.002533 0.875916
0.450104 0.002533 0.872986
0.560394 0.001770 0.870087
0.682251 0.000000 0.869080
0.811523 0.002533 0.862854
0.932587 0.000000 0.863770
0.998871 0.007080 0.859833
0.284149 0.275635 0.877686
0.324219 0.275360 0.878693
0.420349 0.271210 0.883606
0.541809 0.273743 0.880829
0.670868 0.272095 0.873230
0.800385 0.281311 0.870209
0.918152 0.308136 0.863525
1.000000 0.348633 0.869446
0.001526 0.423920 0.892609
0.027679 0.428101 0.888062
0.308380 0.457062 0.881348
0.488525 0.472504 0.885132
0.632782 0.479980 0.883240
0.772308 0.487946 0.875641
0.896515 0.504761 0.870728
0.983704 0.540070 0.868683
0.003937 0.617706 0.899445
0.000000 0.619873 0.893982
0.138763 0.616211 0.889587
0.360901 0.619873 0.891602
0.563324 0.630890 0.882996
0.735107 0.649719 0.884125
0.867676 0.667053 0.885284
0.961304 0.691467 0.876923
0.167633 0.769012 0.896515
0.219727 0.769531 0.908661
0.324860 0.769897 0.906250
0.443390 0.770905 0.903229
0.564728 0.766846 0.898804
0.695892 0.771912 0.898163
0.844421 0.792023 0.899170
0.944458 0.812531 0.890076
0.402771 0.889069 0.920441
0.423401 0.891724 0.923981
0.475403 0.891968 0.916504
0.545868 0.889069 0.920563
0.637085 0.898041 0.923096
0.736267 0.896149 0.924591
0.835693 0.907776 0.916138
0.936890 0.928284 0.932190
