luts/时尚电影.cube
#Created by: Adobe Photoshop Export Color Lookup Plugin
#Copyright: (C) Copyright 2022 Tim Martin and Presetpro.com
TITLE "Presetpro - Fashion Film.jpg"
#LUT size
LUT_3D_SIZE 5
#data domain
#LUT data points
DOMAIN_MIN 0.000000 0.000000 0.000000
DOMAIN_MAX 0.903226 0.903226 0.903226
0.000000 0.000000 0.000000
0.169525 0.014801 0.003937
0.426300 0.003937 0.000000
0.712738 0.000000 0.000000
0.940033 0.003540 0.000000
0.004791 0.224030 0.054016
0.201782 0.216187 0.043152
0.473358 0.205292 0.000000
0.732697 0.202271 0.003052
0.948761 0.224152 0.000885
0.000000 0.534332 0.151184
0.192261 0.526489 0.119019
0.508636 0.514709 0.116882
0.749664 0.490295 0.000000
0.961029 0.485107 0.001770
0.169037 0.746490 0.313721
0.334473 0.741302 0.306396
0.557861 0.728668 0.289062
0.771423 0.725616 0.302094
0.941681 0.711212 0.270996
0.538513 0.916138 0.554962
0.576721 0.909058 0.551941
0.680450 0.905121 0.537506
0.825439 0.902100 0.539276
0.951813 0.908661 0.558502
0.018738 0.000885 0.166962
0.170898 0.000000 0.155212
0.443237 0.000000 0.144226
0.720062 0.002655 0.119019
0.941803 0.000000 0.006195
0.001770 0.208344 0.230988
0.200500 0.220093 0.231873
0.482086 0.211884 0.196564
0.733978 0.203156 0.128510
0.948639 0.224915 0.003540
0.000885 0.542175 0.299927
0.177856 0.538635 0.290680
0.517761 0.520782 0.281952
0.759644 0.496002 0.209595
0.959534 0.486389 0.049164
0.191681 0.746124 0.411133
0.332336 0.743469 0.401917
0.562286 0.730438 0.381409
0.768372 0.729156 0.389771
0.938263 0.715637 0.361298
0.532715 0.913086 0.592407
0.582031 0.909058 0.589630
0.684387 0.906525 0.572815
0.823669 0.902985 0.572296
0.953064 0.907410 0.594940
0.000000 0.002167 0.418457
0.224518 0.000000 0.414154
0.467651 0.001770 0.414917
0.741821 0.000000 0.396179
0.957123 0.001770 0.338623
0.007843 0.164307 0.469818
0.221863 0.174805 0.460693
0.496887 0.190002 0.448059
0.750549 0.234894 0.431488
0.947113 0.251129 0.377106
0.003540 0.511200 0.532562
0.147858 0.519531 0.531677
0.538239 0.546082 0.534332
0.753082 0.521667 0.487640
0.948273 0.500824 0.413116
0.165253 0.752563 0.583160
0.327393 0.752197 0.577484
0.566101 0.744354 0.573029
0.765717 0.737396 0.566589
0.940430 0.722198 0.518646
0.504364 0.916504 0.670837
0.557648 0.912964 0.672089
0.675140 0.913971 0.672607
0.814301 0.904358 0.650360
0.950043 0.908295 0.674744
0.094238 0.000000 0.647186
0.284637 0.001770 0.648956
0.530914 0.000000 0.644531
0.768890 0.000000 0.641998
0.966980 0.099548 0.642273
0.112213 0.108521 0.673248
0.292084 0.095856 0.674286
0.543945 0.057404 0.668579
0.776611 0.104584 0.658936
0.957886 0.337006 0.653259
0.001770 0.427429 0.704376
0.134491 0.430969 0.701721
0.534332 0.477142 0.700317
0.772308 0.513428 0.693848
0.939148 0.562683 0.682983
0.161194 0.717773 0.742706
0.314362 0.720825 0.739166
0.550018 0.734741 0.743439
0.780518 0.758270 0.754486
0.931305 0.729919 0.706909
0.439850 0.920441 0.797089
0.492462 0.917023 0.793182
0.619720 0.917389 0.786224
0.792786 0.911713 0.778381
0.937775 0.911316 0.776611
0.268707 0.000000 0.865540
0.383179 0.000885 0.864777
0.608856 0.000000 0.859833
0.845551 0.000000 0.858582
0.999237 0.000366 0.854156
0.331818 0.003540 0.872986
0.430756 0.000885 0.874268
0.620239 0.000000 0.868195
0.845551 0.000000 0.858582
0.993408 0.003540 0.856415
0.213593 0.369995 0.881195
0.358765 0.378357 0.884369
0.585327 0.379608 0.875519
0.817230 0.399231 0.871216
0.992798 0.448425 0.862366
0.001251 0.660217 0.897278
0.126526 0.662506 0.895142
0.447693 0.658081 0.886017
0.760925 0.685913 0.878571
0.953827 0.720428 0.882111
0.402771 0.889069 0.920441
0.462494 0.886902 0.923462
0.589233 0.894745 0.920044
0.759644 0.900452 0.923096
0.936890 0.928284 0.932190
