luts/时尚电影.cube
#Created by: Adobe Photoshop Export Color Lookup Plugin
#Copyright: (C) Copyright 2022 Tim Martin and Presetpro.com
TITLE "Presetpro - Fashion Film.jpg"
#LUT size
LUT_3D_SIZE 32
#data domain
DOMAIN_MIN 0.0 0.0 0.0
DOMAIN_MAX 1.0 1.0 1.0
#LUT data points
0.000000 0.000000 0.000000
0.016327 0.000122 0.000122
0.044159 0.003937 0.007599
0.063873 0.000366 0.003937
0.087280 0.004944 0.001007
0.107788 0.011139 0.003296
0.137878 0.013275 0.005432
0.169525 0.014801 0.003937
0.198090 0.007843 0.001007
0.235931 0.014557 0.006714
0.265137 0.006592 0.001251
0.306122 0.002533 0.008972
0.343323 0.000000 0.002411
0.384033 0.001648 0.001648
0.426300 0.003937 0.000000
0.470306 0.001892 0.000000
0.514130 0.000000 0.000000
0.555878 0.000000 0.000000
0.589508 0.003937 0.007843
0.635559 0.000000 0.003937
0.675415 0.000000 0.002533
0.712738 0.000000 0.000000
0.744476 0.000000 0.001129
0.776337 0.000000 0.000000
0.813049 0.003052 0.003052
0.848694 0.000000 0.000000
0.883118 0.003296 0.003296
0.912201 0.000000 0.000000
0.940033 0.003540 0.000000
0.975464 0.000000 0.000000
0.995697 0.000000 0.007721
0.996063 0.000000 0.000000
0.004059 0.023895 0.007843
0.019867 0.023773 0.004059
0.044159 0.023773 0.000000
0.068298 0.023895 0.000122
0.098663 0.020996 0.000000
0.112579 0.031616 0.003296
0.147888 0.025421 0.005066
0.171417 0.030853 0.006073
0.199371 0.029724 0.000000
0.235046 0.034424 0.000000
0.265259 0.026581 0.000000
0.303833 0.022644 0.000244
0.347504 0.015930 0.000000
0.390106 0.007965 0.000000
0.428558 0.006195 0.002289
0.472595 0.003784 0.002014
0.514252 0.000122 0.000000
0.559784 0.000000 0.000000
0.595856 0.000000 0.000000
0.635559 0.000000 0.002289
0.676788 0.001404 0.002533
0.715271 0.000000 0.000000
0.747253 0.002777 0.003937
0.777496 0.001129 0.000000
0.815948 0.000122 0.000000
0.848694 0.000000 0.000000
0.883118 0.003296 0.003296
0.908539 0.003296 0.003937
0.940155 0.003418 0.000000
0.975586 0.000366 0.000122
0.995941 0.000000 0.000000
0.996216 0.004547 0.000000
0.007843 0.047821 0.015930
0.027832 0.051605 0.012268
0.047821 0.047821 0.008087
0.063873 0.047943 0.004425
0.088562 0.047821 0.007324
0.127136 0.048706 0.003296
0.153961 0.051727 0.000000
0.175446 0.057800 0.003937
0.207977 0.055664 0.010254
0.240967 0.054535 0.002777
0.274872 0.052002 0.000000
0.311951 0.048950 0.000000
0.348999 0.042633 0.000000
0.394165 0.031006 0.000000
0.432861 0.018860 0.001526
0.478424 0.005585 0.000000
0.520203 0.000763 0.000000
0.563721 0.001892 0.000244
0.601410 0.001648 0.002014
0.639496 0.000000 0.000000
0.676788 0.001404 0.000000
0.707916 0.002411 0.000000
0.743591 0.001404 0.001404
0.780273 0.003937 0.000000
0.813904 0.003937 0.000000
0.847198 0.000763 0.000000
0.880066 0.000244 0.000244
0.916138 0.003418 0.000000
0.947632 0.003296 0.000000
0.975220 0.000244 0.000244
0.992279 0.013031 0.000244
1.000000 0.044891 0.003662
0.003937 0.076416 0.019989
0.034668 0.079559 0.016052
0.051605 0.079681 0.015930
0.068573 0.076019 0.019623
0.094635 0.072235 0.015930
0.114227 0.075409 0.007721
0.158752 0.075653 0.000763
0.183563 0.076019 0.000000
0.209351 0.077026 0.000641
0.248444 0.076019 0.000000
0.283478 0.079559 0.003052
0.321442 0.074646 0.001007
0.358490 0.071716 0.000000
0.400757 0.066925 0.002289
0.435272 0.060730 0.000000
0.480072 0.047058 0.000366
0.522583 0.036285 0.000000
0.561951 0.022644 0.007080
0.597992 0.006683 0.000366
0.643402 0.004303 0.000000
0.680328 0.003662 0.000000
0.713989 0.001251 0.000000
0.747253 0.002777 0.003937
0.781281 0.002899 0.000000
0.818848 0.000885 0.002655
0.848694 0.000763 0.000000
0.880585 0.001526 0.000366
0.916901 0.003021 0.003418
0.940430 0.014038 0.003174
0.975464 0.037567 0.000244
0.998871 0.068420 0.000000
1.000000 0.092102 0.000366
0.006836 0.107910 0.024536
0.023773 0.111450 0.028320
0.052002 0.104736 0.025055
0.076141 0.107788 0.016693
0.096649 0.104492 0.021118
0.126495 0.096252 0.016815
0.151550 0.103485 0.015930
0.184296 0.104370 0.009735
0.215820 0.108398 0.000519
0.248810 0.108032 0.000519
0.291321 0.107391 0.003662
0.327118 0.107025 0.000519
0.369385 0.102966 0.006317
0.408722 0.097778 0.003418
0.447174 0.096130 0.000000
0.488403 0.090179 0.000000
0.527771 0.083862 0.006836
0.566986 0.077667 0.000000
0.604950 0.071350 0.001007
0.651245 0.063873 0.000519
0.680206 0.055511 0.004791
0.718658 0.049438 0.001251
0.751190 0.041473 0.000000
0.791534 0.039825 0.002014
0.820892 0.045410 0.000519
0.852386 0.044769 0.001770
0.887054 0.057800 0.006195
0.917633 0.063873 0.002899
0.947632 0.088165 0.006073
0.979370 0.096893 0.000000
0.995697 0.116364 0.000000
0.996582 0.132446 0.000000
0.000000 0.144318 0.032013
0.019348 0.140930 0.034790
0.047424 0.140411 0.029083
0.078308 0.138123 0.029968
0.094604 0.143707 0.031738
0.135864 0.135223 0.030731
0.155090 0.138397 0.036804
0.188477 0.132202 0.023529
0.227203 0.135864 0.012390
0.257935 0.131927 0.006073
0.298401 0.136475 0.003937
0.336243 0.135864 0.002533
0.377991 0.139771 0.002411
0.416687 0.133575 0.001007
0.457153 0.134094 0.005066
0.498413 0.129272 0.003937
0.532959 0.129913 0.000641
0.575470 0.122559 0.002411
0.608093 0.121429 0.000641
0.646942 0.116882 0.002411
0.680725 0.112946 0.001404
0.721191 0.107635 0.001892
0.754486 0.108521 0.000000
0.788116 0.110291 0.001007
0.820007 0.109406 0.003937
0.855042 0.113464 0.001892
0.885773 0.124084 0.000000
0.912720 0.128784 0.000000
0.951538 0.132812 0.001007
0.978760 0.144714 0.000000
0.992676 0.158997 0.003174
0.993408 0.172424 0.006592
0.000000 0.181763 0.047058
0.003418 0.180878 0.039215
0.027191 0.177094 0.036804
0.075256 0.179504 0.040741
0.106140 0.176331 0.033142
0.139648 0.178253 0.039215
0.161407 0.175568 0.036804
0.188873 0.171265 0.032135
0.226807 0.164581 0.022400
0.264130 0.167358 0.015320
0.303101 0.170654 0.006836
0.345215 0.166992 0.000000
0.385559 0.165344 0.002258
0.430206 0.163055 0.003937
0.459564 0.169250 0.000000
0.497650 0.165344 0.001129
0.545502 0.162537 0.000000
0.579407 0.162811 0.002808
0.615448 0.162170 0.001648
0.652893 0.162170 0.002258
0.689331 0.161407 0.001404
0.728271 0.159882 0.000000
0.756989 0.157501 0.001526
0.792023 0.160645 0.002167
0.825562 0.162811 0.000000
0.855804 0.162170 0.000000
0.884521 0.169250 0.000641
0.916901 0.175842 0.000763
0.948273 0.181396 0.004669
0.975464 0.188110 0.000000
0.996063 0.194305 0.000763
0.998474 0.207703 0.003174
0.004791 0.224030 0.054016
0.001770 0.224030 0.055786
0.007721 0.217072 0.051605
0.059448 0.220093 0.045288
0.104492 0.216675 0.051849
0.135223 0.219482 0.047302
0.159241 0.219086 0.040344
0.201782 0.216187 0.043152
0.225403 0.205292 0.052612
0.262604 0.200500 0.036560
0.300049 0.205292 0.018860
0.347626 0.205292 0.004303
0.391266 0.207458 0.004791
0.432495 0.206818 0.000000
0.473358 0.205292 0.000000
0.517242 0.199615 0.000000
0.548889 0.204407 0.000000
0.586853 0.201385 0.000000
0.623169 0.199860 0.000000
0.663879 0.199371 0.000000
0.697296 0.199097 0.003052
0.732697 0.202271 0.003052
0.764954 0.203400 0.000000
0.793060 0.206451 0.001770
0.827454 0.210480 0.000885
0.856689 0.209229 0.000000
0.888550 0.216431 0.002411
0.914856 0.219971 0.000000
0.948761 0.224152 0.000885
0.975464 0.227936 0.000244
0.996826 0.238708 0.003784
1.000000 0.244507 0.000885
0.000000 0.267792 0.056915
0.001007 0.267792 0.056915
0.001007 0.264893 0.054016
0.022522 0.262360 0.059845
0.087280 0.262878 0.051483
0.125366 0.259949 0.055908
0.165588 0.260956 0.051483
0.205292 0.256927 0.045776
0.244263 0.256042 0.032501
0.270447 0.245026 0.053131
0.309296 0.241364 0.051880
0.350037 0.244659 0.025177
0.398712 0.248199 0.002014
0.437286 0.244263 0.000000
0.477264 0.246277 0.001007
0.522186 0.245148 0.004669
0.559143 0.240356 0.000000
0.598236 0.239716 0.000000
0.631012 0.239960 0.002533
0.666443 0.244263 0.000000
0.705139 0.240845 0.000000
0.736115 0.237671 0.000000
0.765106 0.241364 0.001129
0.800903 0.245270 0.000000
0.828857 0.250092 0.003052
0.861481 0.253113 0.000763
0.890961 0.259308 0.000000
0.919556 0.261353 0.002411
0.952423 0.264893 0.007843
0.979645 0.267548 0.000244
0.996826 0.278290 0.001007
0.996063 0.279572 0.000000
0.000000 0.312714 0.072845
0.002777 0.315491 0.075653
0.000000 0.312439 0.072601
0.001129 0.311554 0.069458
0.049225 0.309418 0.057678
0.114746 0.308136 0.059448
0.164581 0.307251 0.059570
0.207458 0.304596 0.063385
0.240479 0.304871 0.052246
0.280182 0.302582 0.054901
0.312195 0.287781 0.056152
0.348358 0.281830 0.056305
0.402130 0.286530 0.028595
0.440704 0.285767 0.012909
0.479919 0.285889 0.004303
0.519287 0.287659 0.002258
0.561066 0.286377 0.001892
0.603821 0.284119 0.000000
0.641632 0.281830 0.000000
0.677551 0.281464 0.002533
0.705383 0.281342 0.000000
0.742310 0.280060 0.001129
0.770264 0.285767 0.001129
0.799255 0.287018 0.001129
0.837708 0.286896 0.000000
0.868683 0.293091 0.000000
0.899445 0.298035 0.002777
0.922333 0.298157 0.006195
0.952576 0.304871 0.000366
0.979889 0.307648 0.000000
0.999878 0.311432 0.001129
0.994934 0.320557 0.000000
0.000000 0.360504 0.083496
0.002533 0.359253 0.083496
0.005310 0.356598 0.082214
0.001251 0.355347 0.077026
0.010620 0.357086 0.069824
0.098053 0.353943 0.072479
0.162811 0.351410 0.069336
0.205292 0.350525 0.069305
0.245514 0.349762 0.063751
0.286896 0.347626 0.061340
0.325104 0.346100 0.063995
0.366089 0.336853 0.064148
0.394653 0.331818 0.065277
0.439972 0.331421 0.044281
0.481689 0.331299 0.017578
0.529785 0.327881 0.002533
0.565094 0.329773 0.003143
0.606842 0.326111 0.000000
0.644409 0.323975 0.000000
0.685028 0.320038 0.001129
0.713348 0.325226 0.000000
0.743958 0.320038 0.001404
0.774597 0.324097 0.001526
0.811646 0.325867 0.000000
0.838348 0.324341 0.000000
0.870728 0.331055 0.000000
0.898804 0.335083 0.000000
0.923462 0.340027 0.002533
0.953461 0.344452 0.003937
0.976990 0.343567 0.002411
0.997223 0.348755 0.000122
0.998749 0.355347 0.000000
0.000000 0.403015 0.096649
0.002533 0.406952 0.090454
0.000000 0.403290 0.086029
0.000000 0.404419 0.088806
0.000519 0.404663 0.081482
0.064636 0.403656 0.080322
0.151550 0.397186 0.082489
0.199860 0.395691 0.072845
0.247803 0.396576 0.075134
0.291718 0.388977 0.074524
0.334442 0.391266 0.072235
0.376953 0.390106 0.068298
0.412506 0.383026 0.073242
0.443237 0.371155 0.078186
0.482208 0.373047 0.063263
0.521820 0.374695 0.026184
0.568390 0.367218 0.001404
0.608765 0.370636 0.003296
0.645294 0.370758 0.002289
0.682739 0.365204 0.002411
0.713470 0.368866 0.000000
0.746643 0.367615 0.001404
0.782532 0.363800 0.000000
0.818481 0.364044 0.005585
0.842133 0.365204 0.003418
0.870728 0.367737 0.002777
0.898682 0.371521 0.002777
0.925354 0.377106 0.001404
0.953949 0.379120 0.002533
0.983307 0.379761 0.000000
1.000000 0.387329 0.006195
0.997467 0.391266 0.007599
0.002411 0.452240 0.113739
0.000000 0.449707 0.106384
0.000000 0.448303 0.104980
0.000763 0.448303 0.099945
0.000000 0.449310 0.104492
0.036041 0.446777 0.094482
0.139526 0.445129 0.093231
0.200104 0.442596 0.081451
0.248688 0.440979 0.093628
0.299408 0.441345 0.090210
0.339661 0.441620 0.082977
0.375702 0.432617 0.080078
0.416931 0.436554 0.080566
0.454254 0.428436 0.090210
0.483337 0.413910 0.090332
0.524323 0.415039 0.078400
0.565857 0.416809 0.036041
0.610382 0.414154 0.014008
0.642914 0.408447 0.001648
0.684143 0.406677 0.000000
0.718903 0.406189 0.007599
0.753326 0.406677 0.001251
0.783691 0.407562 0.000000
0.815582 0.406067 0.001526
0.846802 0.403656 0.000885
0.877808 0.407562 0.003174
0.905121 0.409363 0.003296
0.929810 0.411987 0.001892
0.952179 0.413391 0.000000
0.983551 0.415405 0.001526
0.997467 0.419220 0.003784
0.997589 0.424774 0.000000
0.003296 0.496765 0.131042
0.003296 0.494476 0.125488
0.000000 0.491943 0.123962
0.000366 0.491821 0.112457
0.001648 0.488281 0.120422
0.022247 0.491211 0.109802
0.125214 0.484344 0.114868
0.198853 0.482727 0.102081
0.254150 0.483093 0.105255
0.296509 0.482208 0.104858
0.342560 0.483978 0.101318
0.383667 0.480194 0.095764
0.425659 0.481079 0.103485
0.464111 0.476501 0.097412
0.498383 0.470703 0.095764
0.526611 0.458923 0.102966
0.572418 0.457153 0.095215
0.608612 0.451843 0.059540
0.644409 0.454620 0.021973
0.684784 0.452118 0.001648
0.717407 0.451080 0.003296
0.753448 0.447418 0.001648
0.786469 0.446289 0.000000
0.817596 0.448059 0.001648
0.843903 0.447418 0.003174
0.874634 0.448944 0.001648
0.903992 0.445770 0.000000
0.933472 0.447418 0.000000
0.957001 0.449707 0.000000
0.984680 0.451721 0.003296
0.999756 0.454254 0.000000
0.997711 0.463104 0.000000
0.000000 0.534332 0.151184
0.001770 0.534332 0.146851
0.001770 0.532166 0.140411
0.002136 0.531799 0.136871
0.001251 0.533447 0.147614
0.015930 0.528259 0.132568
0.120300 0.529663 0.136353
0.192261 0.526489 0.119019
0.257416 0.523956 0.120789
0.303101 0.526886 0.121826
0.349243 0.525208 0.117767
0.392029 0.520782 0.117645
0.435272 0.518646 0.118011
0.473236 0.516876 0.117004
0.508636 0.514709 0.116882
0.544434 0.510803 0.115631
0.569031 0.499023 0.127380
0.608612 0.495514 0.115723
0.644287 0.493347 0.085083
0.678711 0.493103 0.049683
0.718414 0.489410 0.007080
0.749664 0.490295 0.000000
0.783691 0.491180 0.000000
0.811646 0.488281 0.003540
0.844421 0.486389 0.001770
0.875397 0.487274 0.001404
0.905518 0.485504 0.002777
0.936249 0.483337 0.002655
0.961029 0.485107 0.001770
0.987213 0.483734 0.000244
0.997833 0.489410 0.000122
0.992157 0.493347 0.000000
0.005951 0.566345 0.166473
0.000000 0.574432 0.168243
0.002014 0.571899 0.163177
0.003937 0.568359 0.166473
0.002014 0.566986 0.169891
0.019470 0.566345 0.152191
0.130524 0.563934 0.153046
0.202271 0.563416 0.148743
0.260834 0.561523 0.137115
0.305603 0.563293 0.143463
0.351410 0.561157 0.137878
0.391907 0.556610 0.137878
0.438812 0.558105 0.142792
0.478546 0.554810 0.137634
0.510803 0.550659 0.134979
0.552673 0.546722 0.137115
0.589996 0.548492 0.142792
0.610260 0.534302 0.152405
0.646057 0.532043 0.142914
0.683624 0.529144 0.114807
0.716888 0.527740 0.083954
0.749023 0.527130 0.039398
0.781799 0.527252 0.003784
0.814697 0.524200 0.001007
0.840759 0.524353 0.000000
0.874634 0.523193 0.000000
0.905884 0.523193 0.001404
0.932465 0.520782 0.000000
0.959656 0.522430 0.001648
0.981903 0.521057 0.000000
0.997986 0.525085 0.000000
0.997986 0.525208 0.000000
0.001892 0.604187 0.180511
0.000000 0.606232 0.184723
0.000000 0.608124 0.190887
0.000000 0.605835 0.192169
0.004059 0.602173 0.185455
0.047058 0.603699 0.182556
0.143951 0.598999 0.179016
0.206207 0.600525 0.170776
0.265900 0.593445 0.166870
0.313843 0.597473 0.162933
0.360016 0.593964 0.158539
0.405701 0.592438 0.161804
0.443909 0.586609 0.155762
0.481201 0.588104 0.156738
0.521057 0.588379 0.163086
0.558746 0.586487 0.157135
0.592438 0.584595 0.153198
0.626190 0.580658 0.159149
0.649109 0.567505 0.165222
0.677795 0.564972 0.171448
0.713989 0.564972 0.146881
0.747894 0.559784 0.121216
0.778870 0.561066 0.079224
0.812653 0.561066 0.040405
0.845551 0.557251 0.006073
0.875549 0.559906 0.000000
0.901337 0.557129 0.000000
0.933838 0.558533 0.005432
0.959656 0.558777 0.000000
0.985199 0.553223 0.001648
0.996063 0.554962 0.000244
0.998108 0.557129 0.002014
0.003540 0.639984 0.216461
0.003540 0.639984 0.216217
0.000000 0.637573 0.209991
0.003937 0.636078 0.210388
0.005035 0.638977 0.210114
0.089325 0.632782 0.203186
0.165070 0.632141 0.197113
0.219604 0.631744 0.199127
0.281860 0.626068 0.190155
0.322571 0.625946 0.184570
0.370148 0.627472 0.184326
0.412384 0.625061 0.182312
0.450714 0.617981 0.182922
0.493835 0.618622 0.180664
0.530396 0.618622 0.186096
0.568359 0.616455 0.188873
0.594574 0.614319 0.178497
0.634674 0.618225 0.185089
0.661987 0.616333 0.193054
0.689697 0.601013 0.190643
0.713470 0.598236 0.193542
0.747009 0.596863 0.178253
0.779755 0.597473 0.155731
0.805817 0.597992 0.135132
0.840088 0.592041 0.089478
0.871490 0.593323 0.041412
0.899445 0.592926 0.007080
0.927002 0.591156 0.003021
0.957886 0.590790 0.004700
0.987213 0.591156 0.001770
0.999878 0.589508 0.003540
1.000000 0.586853 0.000000
0.004547 0.665649 0.234924
0.001648 0.669464 0.236450
0.000000 0.665924 0.232391
0.011261 0.664032 0.229980
0.064697 0.667297 0.232635
0.141937 0.665680 0.229736
0.193420 0.664795 0.220886
0.246674 0.663147 0.225555
0.294861 0.656189 0.217590
0.336884 0.656189 0.218597
0.381134 0.656433 0.208862
0.419586 0.650604 0.207489
0.455414 0.652252 0.203796
0.495117 0.652252 0.206207
0.534851 0.650482 0.208984
0.571014 0.650604 0.210388
0.602539 0.646057 0.209869
0.634430 0.646179 0.208984
0.670227 0.646698 0.210754
0.702728 0.645813 0.212402
0.719421 0.633301 0.225067
0.751434 0.624817 0.228363
0.777496 0.623047 0.209747
0.811646 0.628723 0.191162
0.843536 0.624817 0.166626
0.869324 0.620880 0.142853
0.898438 0.623169 0.098694
0.923981 0.622009 0.055481
0.955078 0.620880 0.009491
0.987488 0.620880 0.000000
1.000000 0.621002 0.000000
0.997711 0.620880 0.006195
0.000000 0.697418 0.263000
0.004425 0.691986 0.262878
0.028748 0.697418 0.260864
0.082642 0.695374 0.256683
0.135101 0.691986 0.252258
0.196991 0.689301 0.257324
0.222900 0.695007 0.248566
0.273132 0.692596 0.245789
0.316254 0.685638 0.245422
0.354706 0.684387 0.247559
0.398224 0.685638 0.246063
0.432495 0.683777 0.241882
0.472717 0.679596 0.230133
0.506256 0.679443 0.232269
0.546082 0.680847 0.237946
0.580139 0.672516 0.234680
0.614075 0.675781 0.233398
0.642151 0.674530 0.238983
0.672760 0.676300 0.240875
0.703735 0.672363 0.240112
0.736755 0.673767 0.241608
0.755493 0.661865 0.246948
0.780518 0.657074 0.253021
0.809631 0.657684 0.253021
0.840485 0.653381 0.229767
0.870850 0.652771 0.205841
0.896149 0.654297 0.182556
0.924988 0.652771 0.163330
0.949768 0.653534 0.125397
0.975464 0.651489 0.071014
0.997345 0.652771 0.028107
1.000000 0.652771 0.003937
0.070251 0.722961 0.287415
0.106171 0.719940 0.292236
0.133606 0.719696 0.289703
0.168274 0.721313 0.286041
0.193695 0.719421 0.281219
0.225677 0.718170 0.285400
0.260986 0.719177 0.285034
0.299164 0.717407 0.283875
0.337128 0.717407 0.278320
0.372925 0.713470 0.272888
0.410126 0.710938 0.270477
0.448700 0.708405 0.263885
0.480560 0.707153 0.260223
0.515472 0.711212 0.261108
0.548248 0.703094 0.259338
0.581268 0.705627 0.261627
0.614441 0.701721 0.269714
0.650360 0.706268 0.263519
0.674652 0.704254 0.260864
0.705261 0.705505 0.270203
0.733093 0.701721 0.266418
0.767365 0.698944 0.266418
0.787354 0.691101 0.283752
0.809753 0.683105 0.287415
0.835175 0.682983 0.277191
0.868561 0.684021 0.265686
0.892212 0.683868 0.244690
0.920929 0.684631 0.220764
0.945740 0.679565 0.211395
0.976593 0.679565 0.175598
0.998230 0.684631 0.139832
1.000000 0.682098 0.106049
0.169037 0.746490 0.313721
0.184967 0.749023 0.317535
0.200897 0.746643 0.312836
0.222900 0.750183 0.313873
0.246826 0.742188 0.314240
0.268707 0.747253 0.320435
0.297424 0.741302 0.315765
0.334473 0.741302 0.306396
0.357758 0.742584 0.310333
0.394165 0.741058 0.304749
0.425781 0.737244 0.299438
0.459198 0.733459 0.290344
0.492218 0.734619 0.290344
0.524841 0.731812 0.287415
0.557861 0.728668 0.289062
0.592010 0.732208 0.287811
0.621124 0.728149 0.294250
0.653900 0.729034 0.293365
0.679718 0.729919 0.291473
0.714111 0.729553 0.294128
0.739655 0.727020 0.296783
0.771423 0.725616 0.302094
0.800659 0.723969 0.302094
0.824554 0.721191 0.308685
0.835693 0.712097 0.318146
0.865784 0.712097 0.315521
0.888306 0.712585 0.300201
0.916901 0.712585 0.286926
0.941681 0.711212 0.270996
0.970154 0.710449 0.248230
0.995941 0.709930 0.225830
1.000000 0.711212 0.212158
0.230743 0.770264 0.347870
0.245941 0.771912 0.345612
0.260376 0.770782 0.348389
0.267303 0.770660 0.343201
0.291718 0.771301 0.343842
0.311707 0.770264 0.350159
0.338135 0.762054 0.347778
0.353821 0.770020 0.336639
0.385712 0.770264 0.340424
0.418457 0.764069 0.337158
0.448425 0.762421 0.331177
0.480316 0.758514 0.331329
0.514862 0.755981 0.318665
0.544342 0.758514 0.320953
0.571655 0.758392 0.321960
0.601746 0.758118 0.320068
0.633301 0.755341 0.320557
0.660736 0.757385 0.318787
0.688049 0.752808 0.326630
0.716644 0.753448 0.326385
0.744873 0.755981 0.324860
0.776978 0.753571 0.327515
0.803284 0.753448 0.335480
0.832123 0.749542 0.332336
0.841248 0.744476 0.339661
0.864014 0.737762 0.345245
0.888794 0.737762 0.349030
0.916138 0.743958 0.340942
0.943573 0.737762 0.334747
0.967621 0.744476 0.314362
0.991638 0.742828 0.294250
1.000000 0.743347 0.285553
0.291992 0.794067 0.377472
0.294250 0.794067 0.373566
0.307159 0.793060 0.376617
0.319794 0.796326 0.380798
0.336639 0.795441 0.375336
0.344971 0.796722 0.377106
0.367126 0.788879 0.375977
0.398743 0.789001 0.378387
0.415680 0.791016 0.370422
0.442505 0.788116 0.361420
0.469696 0.784943 0.359406
0.499298 0.785217 0.355865
0.528534 0.785583 0.357117
0.553192 0.783936 0.349518
0.578735 0.780151 0.342957
0.615295 0.778381 0.349915
0.642395 0.781281 0.343201
0.668457 0.781281 0.349152
0.698303 0.778381 0.356110
0.725372 0.779877 0.353333
0.753082 0.776978 0.359283
0.780518 0.777374 0.354095
0.804321 0.777374 0.361542
0.825439 0.780273 0.367493
0.848328 0.779266 0.368622
0.870972 0.772186 0.371674
0.891846 0.765594 0.379639
0.916138 0.764587 0.381287
0.936127 0.765839 0.385101
0.964691 0.766602 0.373840
0.992676 0.765594 0.357880
1.000000 0.769531 0.345856
0.339783 0.815186 0.411255
0.351562 0.816956 0.408234
0.351807 0.816956 0.408234
0.360657 0.820496 0.404297
0.364594 0.815308 0.403168
0.395569 0.816071 0.409119
0.403412 0.820007 0.405304
0.430481 0.816956 0.402161
0.443512 0.814056 0.402405
0.470459 0.816071 0.393188
0.492584 0.813049 0.392548
0.520538 0.809998 0.396973
0.546997 0.808228 0.394073
0.572662 0.806824 0.384338
0.598358 0.809113 0.378113
0.622772 0.806335 0.374847
0.654144 0.807220 0.378754
0.685272 0.805206 0.385956
0.702972 0.805695 0.387604
0.732452 0.803680 0.380768
0.757111 0.802155 0.387238
0.786224 0.802155 0.395203
0.807465 0.800385 0.396729
0.834290 0.807098 0.391663
0.853149 0.800385 0.393433
0.880829 0.803436 0.396851
0.892853 0.797089 0.405701
0.918793 0.791656 0.410370
0.933472 0.792175 0.429474
0.964569 0.792542 0.422150
0.988617 0.797089 0.418213
1.000000 0.799500 0.415588
0.391541 0.840851 0.451996
0.399384 0.842377 0.446930
0.399628 0.840607 0.440094
0.407227 0.840118 0.443268
0.418976 0.837708 0.438446
0.427582 0.840851 0.436188
0.444794 0.840118 0.439362
0.462891 0.841614 0.444916
0.480347 0.840118 0.436188
0.499298 0.838226 0.431519
0.521057 0.836426 0.433014
0.544830 0.834808 0.430756
0.567108 0.834656 0.417328
0.593292 0.832275 0.415070
0.615540 0.831268 0.413422
0.641998 0.830383 0.408875
0.664520 0.829468 0.411530
0.693390 0.829102 0.416565
0.718170 0.829102 0.422028
0.740540 0.825928 0.420502
0.765106 0.826691 0.419861
0.794952 0.828583 0.422638
0.818604 0.831879 0.427979
0.840363 0.825928 0.431244
0.859222 0.822144 0.435303
0.880829 0.825165 0.435425
0.903992 0.825684 0.435669
0.923462 0.826813 0.443512
0.939270 0.819733 0.454132
0.963684 0.818085 0.467804
0.981659 0.821259 0.473755
0.992920 0.828339 0.471619
0.432129 0.864777 0.482483
0.444031 0.865417 0.479187
0.448456 0.864777 0.480469
0.452881 0.861237 0.473633
0.462891 0.865417 0.477814
0.465393 0.864777 0.468048
0.485779 0.865417 0.471985
0.500580 0.860840 0.473511
0.510315 0.861237 0.469086
0.528015 0.863525 0.467438
0.550903 0.862122 0.466034
0.570892 0.858948 0.469452
0.584320 0.858063 0.460205
0.609222 0.857574 0.454651
0.632111 0.853638 0.453003
0.660583 0.851105 0.449707
0.679474 0.855682 0.443268
0.706024 0.856934 0.449982
0.734344 0.850098 0.449829
0.751953 0.852112 0.452362
0.777496 0.852997 0.451874
0.802795 0.853638 0.454895
0.822906 0.855286 0.465790
0.844421 0.853394 0.463501
0.864532 0.849335 0.460846
0.891205 0.852264 0.471100
0.907898 0.849731 0.482483
0.925232 0.849731 0.477295
0.944092 0.852753 0.483124
0.955719 0.837952 0.491089
0.983307 0.842377 0.511566
1.000000 0.849091 0.521698
0.486664 0.885254 0.514618
0.484497 0.891968 0.511719
0.492340 0.887909 0.513214
0.495880 0.885132 0.520691
0.510193 0.884766 0.515137
0.512726 0.885254 0.508423
0.529053 0.887421 0.513367
0.533844 0.888672 0.508667
0.545593 0.885773 0.508301
0.562164 0.888184 0.510559
0.576965 0.886902 0.506775
0.592926 0.888184 0.501465
0.615814 0.881744 0.499939
0.633636 0.881348 0.496643
0.659088 0.881348 0.495911
