luts/胶片颗粒质感电影.cube
#Created by: Adobe Photoshop Export Color Lookup Plugin
#Copyright: (C) Copyright 2018 https://www.presetpro.com and Tim Martin
TITLE "Presetpro - Film Roll"
#LUT size
LUT_3D_SIZE 32
#data domain
DOMAIN_MIN 0.0 0.0 0.0
DOMAIN_MAX 1.0 1.0 1.0
#LUT data points
0.009827 0.006714 0.008881
0.035126 0.008606 0.009216
0.062134 0.010651 0.009369
0.091187 0.012817 0.009277
0.125000 0.014862 0.008606
0.163696 0.016785 0.007446
0.210571 0.018494 0.005524
0.262512 0.018036 0.002472
0.312469 0.016724 0.000000
0.352539 0.014496 0.000000
0.392853 0.010864 0.000000
0.433319 0.006592 0.000000
0.474548 0.001862 0.000000
0.509277 0.000000 0.000000
0.539185 0.000000 0.000000
0.560852 0.000000 0.000000
0.582520 0.000000 0.000000
0.604218 0.000000 0.000000
0.625519 0.000000 0.000000
0.646637 0.000000 0.000000
0.667419 0.000000 0.000000
0.687286 0.000000 0.000000
0.704773 0.000000 0.000000
0.717133 0.000000 0.000000
0.729492 0.000000 0.000000
0.741852 0.000000 0.000000
0.754211 0.000000 0.000000
0.766571 0.000000 0.000000
0.778931 0.000000 0.000000
0.791229 0.000000 0.000000
0.803467 0.002228 0.000000
0.815704 0.006256 0.000000
0.011383 0.034424 0.012573
0.026245 0.031403 0.011688
0.048035 0.033478 0.011780
0.070648 0.035706 0.011597
0.093536 0.039124 0.011169
0.124573 0.042084 0.010437
0.159424 0.045410 0.009125
0.199371 0.049591 0.007233
0.248840 0.051025 0.004120
0.296448 0.053558 0.001404
0.344513 0.053894 0.000427
0.388336 0.051849 0.000000
0.429565 0.050446 0.000000
0.471161 0.047028 0.000000
0.506775 0.045776 0.000000
0.549377 0.041107 0.000000
0.572144 0.039948 0.000000
0.594940 0.038788 0.000000
0.617126 0.037018 0.000000
0.638672 0.036285 0.000000
0.660126 0.035339 0.000000
0.681549 0.034302 0.000000
0.701965 0.033875 0.000000
0.720551 0.033386 0.000000
0.734955 0.035217 0.000000
0.748016 0.036621 0.000000
0.760590 0.039886 0.000000
0.773071 0.042816 0.000000
0.785492 0.044891 0.000000
0.797943 0.049286 0.000000
0.810211 0.052063 0.000000
0.822449 0.056549 0.000000
0.011810 0.058350 0.015198
0.027069 0.055481 0.014343
0.042297 0.054535 0.013702
0.059692 0.056793 0.013428
0.080780 0.060181 0.012970
0.104248 0.063995 0.012329
0.132385 0.068237 0.011414
0.165955 0.072968 0.009796
0.205414 0.077942 0.007599
0.254089 0.082336 0.004059
0.306183 0.086182 0.001190
0.356598 0.087708 0.000000
0.398773 0.087769 0.000000
0.439941 0.087433 0.000000
0.481812 0.085022 0.000000
0.524719 0.081970 0.000000
0.565796 0.078796 0.000000
0.589691 0.076477 0.000000
0.611969 0.075317 0.000000
0.634094 0.074188 0.000000
0.655975 0.072662 0.000000
0.677612 0.071991 0.000000
0.699127 0.071259 0.000000
0.720367 0.070709 0.000000
0.739685 0.071564 0.000000
0.754395 0.074036 0.000000
0.767212 0.077667 0.000000
0.779694 0.081360 0.000000
0.792206 0.085754 0.000000
0.804626 0.090118 0.000000
0.816956 0.094543 0.000000
0.829193 0.099579 0.000000
0.010834 0.077667 0.016449
0.026520 0.074982 0.015656
0.042114 0.074188 0.015045
0.057800 0.075806 0.014709
0.078247 0.079102 0.014191
0.100952 0.082855 0.013489
0.126862 0.087097 0.012482
0.158112 0.091888 0.010956
0.193634 0.096985 0.008850
0.236603 0.102539 0.005707
0.287903 0.107574 0.002502
0.340057 0.111755 0.000000
0.384460 0.113922 0.000000
0.426453 0.114990 0.000000
0.467438 0.115448 0.000000
0.509247 0.115204 0.000000
0.550385 0.113983 0.000000
0.589569 0.112640 0.000000
0.611908 0.112305 0.000000
0.634033 0.111969 0.000000
0.655975 0.111877 0.000000
0.677704 0.111816 0.000000
0.699310 0.111877 0.000000
0.720734 0.112274 0.000000
0.741882 0.112793 0.000000
0.760834 0.114014 0.000000
0.774109 0.116486 0.000000
0.786774 0.119446 0.000000
0.799164 0.122650 0.000000
0.811493 0.126007 0.000000
0.823761 0.129761 0.000000
0.835999 0.133698 0.000000
0.007507 0.099365 0.020020
0.025482 0.095764 0.016357
0.040985 0.094727 0.015717
0.056458 0.096100 0.015289
0.076996 0.099335 0.014618
0.099304 0.103058 0.013885
0.124725 0.107300 0.012787
0.153870 0.112152 0.011108
0.187622 0.117371 0.009033
0.228088 0.123260 0.005859
0.275299 0.129272 0.002655
0.327820 0.134460 0.000000
0.377563 0.138580 0.000000
0.419220 0.140869 0.000000
0.459747 0.142212 0.000000
0.500549 0.143585 0.000000
0.542664 0.143890 0.000000
0.583557 0.143463 0.000000
0.614288 0.143677 0.000000
0.636353 0.143768 0.000000
0.658264 0.143982 0.000000
0.679962 0.144592 0.000000
0.701538 0.144958 0.000000
0.722961 0.145691 0.000000
0.744171 0.146698 0.000000
0.764862 0.147705 0.000000
0.782104 0.149658 0.000000
0.794769 0.152344 0.000000
0.807190 0.155304 0.000000
0.819550 0.158569 0.000000
0.831848 0.162048 0.000000
0.844116 0.165802 0.000000
0.004028 0.122192 0.024231
0.021606 0.119049 0.019928
0.038818 0.117157 0.016998
0.054077 0.118225 0.016571
0.075348 0.121307 0.015503
0.098022 0.124939 0.014282
0.123138 0.129181 0.013092
0.151917 0.133972 0.011078
0.183533 0.139252 0.008698
0.222382 0.145264 0.005432
0.267334 0.151672 0.002716
0.317322 0.158051 0.000000
0.369537 0.163239 0.000000
0.414337 0.167023 0.000000
0.454193 0.169403 0.000000
0.494568 0.171478 0.000000
0.535583 0.173279 0.000000
0.577881 0.174133 0.000000
0.612854 0.175049 0.000000
0.640015 0.175690 0.000000
0.661865 0.176239 0.000000
0.683502 0.177155 0.000000
0.705048 0.178101 0.000000
0.726471 0.179077 0.000000
0.747711 0.180450 0.000000
0.768890 0.181885 0.000000
0.788116 0.183685 0.000000
0.804016 0.186096 0.000000
0.816406 0.188934 0.000000
0.828827 0.192108 0.000000
0.841248 0.195496 0.000000
0.853577 0.199066 0.000000
0.000671 0.146667 0.029297
0.017120 0.144623 0.024353
0.033783 0.143219 0.020935
0.049866 0.143463 0.019165
0.072357 0.146423 0.017517
0.096039 0.149933 0.015808
0.121735 0.153961 0.013611
0.150330 0.158661 0.011139
0.181671 0.163849 0.008240
0.218292 0.169861 0.004181
0.261841 0.176544 0.001831
0.309723 0.183350 0.000000
0.364777 0.190308 0.000000
0.410522 0.194824 0.000000
0.451019 0.198181 0.000000
0.490967 0.201172 0.000000
0.531586 0.203644 0.000000
0.572754 0.205872 0.000000
0.614136 0.207733 0.000000
0.645477 0.209045 0.000000
0.667267 0.210175 0.000000
0.688934 0.211395 0.000000
0.710510 0.212738 0.000000
0.731964 0.214325 0.000000
0.753265 0.215973 0.000000
0.774445 0.217773 0.000000
0.795532 0.219879 0.000000
0.812775 0.222321 0.000000
0.827637 0.225037 0.000000
0.840179 0.228210 0.000000
0.852631 0.231537 0.000000
0.865112 0.235016 0.000000
0.000000 0.171753 0.034729
0.009430 0.170197 0.029327
0.026001 0.169220 0.025482
0.042358 0.169403 0.023346
0.067413 0.172577 0.021088
0.092224 0.176178 0.018951
0.118744 0.180359 0.016541
0.148315 0.185455 0.013336
0.179321 0.190674 0.010071
0.215424 0.196960 0.005737
0.257385 0.204102 0.001801
0.304138 0.211304 0.000000
0.357666 0.218964 0.000000
0.408173 0.225250 0.000000
0.450195 0.229340 0.000000
0.489899 0.233093 0.000000
0.530029 0.236359 0.000000
0.570740 0.239166 0.000000
0.612518 0.242157 0.000000
0.649414 0.244110 0.000000
0.674622 0.245575 0.000000
0.696167 0.247009 0.000000
0.717712 0.248474 0.000000
0.739105 0.250092 0.000000
0.760315 0.251831 0.000000
0.781525 0.253723 0.000000
0.802521 0.255737 0.000000
0.823273 0.257904 0.000000
0.839508 0.260437 0.000000
0.851685 0.262939 0.000000
0.863892 0.265717 0.000000
0.876251 0.268921 0.000000
0.000000 0.197906 0.040283
0.006561 0.196625 0.034607
0.016113 0.195892 0.030273
0.032867 0.196198 0.027802
0.059052 0.199402 0.025299
0.086914 0.203247 0.022614
0.114532 0.207672 0.019867
0.144989 0.212830 0.016388
0.176819 0.218445 0.012482
0.212524 0.224915 0.007843
0.254028 0.232239 0.003296
0.299377 0.240021 0.000000
0.351929 0.248138 0.000000
0.402924 0.255341 0.000000
0.450043 0.261108 0.000000
0.489624 0.265167 0.000000
0.529480 0.269104 0.000000
0.569672 0.272675 0.000000
0.611267 0.276062 0.000000
0.650757 0.279083 0.000000
0.681091 0.281067 0.000000
0.703918 0.282654 0.000000
0.725311 0.284241 0.000000
0.746643 0.285858 0.000000
0.767792 0.287628 0.000000
0.788879 0.289459 0.000000
0.809814 0.291412 0.000000
0.830566 0.293488 0.000000
0.850769 0.295593 0.000000
0.863495 0.297821 0.000000
0.875397 0.300079 0.000000
0.887360 0.302551 0.000000
0.000000 0.226562 0.045898
0.003174 0.225891 0.039764
0.009888 0.225311 0.035217
0.019684 0.225433 0.032227
0.047943 0.228607 0.029327
0.077332 0.232422 0.026398
0.108704 0.236847 0.023071
0.140381 0.242065 0.019135
0.173218 0.247711 0.014862
0.209137 0.254120 0.009552
0.250336 0.261536 0.004242
0.295288 0.269440 0.000000
0.346527 0.278015 0.000000
0.399353 0.285919 0.000000
0.450134 0.292877 0.000000
0.489502 0.297302 0.000000
0.529205 0.301453 0.000000
0.569153 0.305481 0.000000
0.610138 0.309326 0.000000
0.650726 0.312775 0.000000
0.688629 0.315826 0.000000
0.711365 0.317444 0.000000
0.732727 0.319031 0.000000
0.753937 0.320679 0.000000
0.775024 0.322449 0.000000
0.796051 0.324310 0.000000
0.816895 0.326263 0.000000
0.837646 0.328339 0.000000
0.857880 0.330444 0.000000
0.874390 0.332550 0.000000
0.886932 0.334717 0.000000
0.898743 0.336945 0.000000
0.000000 0.254333 0.051514
0.003174 0.254547 0.045105
0.006317 0.254486 0.040070
0.013153 0.254730 0.036865
0.031830 0.258240 0.033356
0.064728 0.262268 0.029938
0.099091 0.266876 0.026245
0.134430 0.272522 0.021454
0.168365 0.278351 0.016693
0.204987 0.285034 0.010864
0.246613 0.292816 0.004761
0.291260 0.300812 0.000000
0.342194 0.309570 0.000000
0.397278 0.318573 0.000000
0.450226 0.326294 0.000000
0.490021 0.330963 0.000000
0.529663 0.335449 0.000000
0.569519 0.339691 0.000000
0.610046 0.343903 0.000000
0.651489 0.347870 0.000000
0.691589 0.351379 0.000000
0.719208 0.353546 0.000000
0.740509 0.355072 0.000000
0.761688 0.356720 0.000000
0.782654 0.358429 0.000000
0.803619 0.360260 0.000000
0.824402 0.362183 0.000000
0.845032 0.364166 0.000000
0.865631 0.366272 0.000000
0.884460 0.368408 0.000000
0.898560 0.370300 0.000000
0.910339 0.372406 0.000000
0.000000 0.281647 0.057129
0.003174 0.282257 0.050629
0.006317 0.282837 0.045319
0.009491 0.283478 0.041595
0.023071 0.287231 0.037781
0.047729 0.291595 0.033783
0.086884 0.296570 0.029480
0.125031 0.302429 0.024323
0.162323 0.308685 0.018677
0.199829 0.315674 0.012268
0.242035 0.323700 0.005493
0.287048 0.332245 0.000000
0.337799 0.341156 0.000000
0.392548 0.350433 0.000000
0.449554 0.359589 0.000000
0.490173 0.364624 0.000000
0.530121 0.369415 0.000000
0.569977 0.373932 0.000000
0.610321 0.378326 0.000000
0.651306 0.382660 0.000000
0.693329 0.386749 0.000000
0.723328 0.389313 0.000000
0.748199 0.391205 0.000000
0.769318 0.392792 0.000000
0.790253 0.394470 0.000000
0.811096 0.396179 0.000000
0.831818 0.398041 0.000000
0.852386 0.399933 0.000000
0.872864 0.401917 0.000000
0.893188 0.404053 0.000000
0.909607 0.405945 0.000000
0.921753 0.407715 0.000000
0.000000 0.308289 0.062469
0.003174 0.308777 0.056183
0.006317 0.309326 0.050781
0.009491 0.309937 0.046783
0.012665 0.313721 0.042511
0.033630 0.318176 0.038208
0.071991 0.323151 0.033386
0.114258 0.328979 0.027710
0.153992 0.335266 0.021759
0.193542 0.342194 0.014618
0.236145 0.350311 0.006561
0.281494 0.358948 0.000000
0.332092 0.368591 0.000000
0.386444 0.378235 0.000000
0.443054 0.387878 0.000000
0.488647 0.394623 0.000000
0.529205 0.399811 0.000000
0.569122 0.404724 0.000000
0.609253 0.409546 0.000000
0.650024 0.414124 0.000000
0.691620 0.418610 0.000000
0.727081 0.422028 0.000000
0.754242 0.424286 0.000000
0.775299 0.425842 0.000000
0.796204 0.427399 0.000000
0.817017 0.429077 0.000000
0.837646 0.430756 0.000000
0.858154 0.432526 0.000000
0.878571 0.434387 0.000000
0.898712 0.436188 0.000000
0.916718 0.438019 0.000000
0.931274 0.439636 0.000000
0.000000 0.334869 0.067688
0.003174 0.335236 0.061432
0.006317 0.335846 0.056122
0.009491 0.336426 0.052002
0.012665 0.340240 0.047424
0.019989 0.344696 0.042572
0.052429 0.349701 0.037476
0.101288 0.355560 0.031158
0.144501 0.361847 0.024658
0.185669 0.368744 0.017181
0.229889 0.376801 0.007782
0.275574 0.385559 0.000214
0.326324 0.395233 0.000000
0.380402 0.405304 0.000000
0.436859 0.415344 0.000000
0.485077 0.422791 0.000000
0.527863 0.428772 0.000000
0.567810 0.433960 0.000000
0.607788 0.438873 0.000000
0.648224 0.443726 0.000000
0.689606 0.448395 0.000000
0.729065 0.452576 0.000000
0.759338 0.455261 0.000000
0.780365 0.456757 0.000000
0.801178 0.458221 0.000000
0.821960 0.459808 0.000000
0.842499 0.461395 0.000000
0.862915 0.463013 0.000000
0.883270 0.464752 0.000000
0.903351 0.466461 0.000000
0.923309 0.468201 0.000000
0.939667 0.469757 0.000000
0.000000 0.361237 0.072968
0.003174 0.361603 0.066711
0.006317 0.362183 0.061340
0.009491 0.362946 0.057129
0.012665 0.366760 0.052399
0.019379 0.371246 0.047272
0.034515 0.376251 0.041565
0.080780 0.382111 0.034943
0.132843 0.388397 0.027771
0.176575 0.395294 0.019775
0.222260 0.403351 0.009888
0.269348 0.412109 0.000702
0.320343 0.421814 0.000183
0.374542 0.431885 0.000000
0.430786 0.442200 0.000000
0.481079 0.450226 0.000000
0.526245 0.456879 0.000000
0.566162 0.462128 0.000000
0.606049 0.467163 0.000000
0.646362 0.472076 0.000000
0.687256 0.476868 0.000000
0.728394 0.481384 0.000000
0.763794 0.484924 0.000000
0.784760 0.486267 0.000000
0.805511 0.487671 0.000000
0.826233 0.489105 0.000000
0.846710 0.490601 0.000000
0.867065 0.492157 0.000000
0.887329 0.493683 0.000000
0.907379 0.495331 0.000000
0.927307 0.496979 0.000000
0.947113 0.498657 0.000000
0.000000 0.384979 0.079773
0.003174 0.386017 0.072998
0.006317 0.386963 0.067261
0.009491 0.388275 0.062531
0.012665 0.392487 0.057312
0.015808 0.397156 0.051880
0.022552 0.402496 0.045685
0.065369 0.408386 0.038422
0.117645 0.414673 0.030884
0.167023 0.421570 0.022156
0.214355 0.429596 0.011719
0.262390 0.438324 0.002106
0.314240 0.448059 0.000183
0.368439 0.458252 0.000000
0.424713 0.468597 0.000000
0.479309 0.477844 0.000000
0.524475 0.484558 0.000000
0.564423 0.489899 0.000000
0.604370 0.495026 0.000000
0.644501 0.500000 0.000000
0.685089 0.504913 0.000000
0.726715 0.509705 0.000000
0.763611 0.513489 0.000000
0.788788 0.515442 0.000000
0.809540 0.516785 0.000000
0.830200 0.518158 0.000000
0.850677 0.519562 0.000000
0.871002 0.521027 0.000000
0.891235 0.522522 0.000000
0.911224 0.524048 0.000000
0.931152 0.525665 0.000000
0.950958 0.527283 0.000000
0.000000 0.407654 0.087341
0.003174 0.408539 0.080658
0.006317 0.410034 0.074585
0.009491 0.411713 0.069489
0.012665 0.415863 0.064117
0.015808 0.420776 0.058197
0.018982 0.426239 0.051666
0.048218 0.432465 0.043457
0.101013 0.438904 0.035095
0.154663 0.445953 0.025787
0.205597 0.454285 0.014526
0.255066 0.463135 0.003998
0.307526 0.473145 0.000824
0.362305 0.483765 0.000000
0.418762 0.494293 0.000000
0.475220 0.504395 0.000000
0.522675 0.512085 0.000000
0.562592 0.517456 0.000000
0.602692 0.522980 0.000000
0.642731 0.528107 0.000000
0.683167 0.533081 0.000000
0.724518 0.537933 0.000000
0.763580 0.542267 0.000000
0.791382 0.544617 0.000000
0.813538 0.546051 0.000000
0.834167 0.547394 0.000000
0.854614 0.548737 0.000000
0.874939 0.550110 0.000000
0.895142 0.551544 0.000000
0.915131 0.553040 0.000000
0.934998 0.554504 0.000000
0.954773 0.556122 0.000000
0.000000 0.429108 0.095612
0.003174 0.429932 0.089050
0.006317 0.431305 0.083099
0.009491 0.433380 0.077911
0.012665 0.437469 0.072418
0.015808 0.442230 0.066376
0.018982 0.447693 0.059326
0.041504 0.454041 0.050537
0.078735 0.460815 0.041046
0.140869 0.468262 0.030518
0.195251 0.476898 0.018677
0.247192 0.486237 0.007233
0.300507 0.496735 0.001953
0.355774 0.507721 0.000000
0.412567 0.519012 0.000000
0.471283 0.530151 0.000000
0.520569 0.538696 0.000000
0.560730 0.544800 0.000000
0.600983 0.550659 0.000000
0.641174 0.556183 0.000000
0.681366 0.561340 0.000000
0.722565 0.566284 0.000000
0.761353 0.570709 0.000000
0.794067 0.573883 0.000000
0.817444 0.575500 0.000000
0.838074 0.576721 0.000000
0.858521 0.578003 0.000000
0.878815 0.579346 0.000000
0.899017 0.580688 0.000000
0.919006 0.582123 0.000000
0.938843 0.583588 0.000000
0.958588 0.585052 0.000000
0.000000 0.450867 0.105469
0.003174 0.451477 0.099121
0.006317 0.453094 0.093140
0.009491 0.455414 0.087921
0.012665 0.459412 0.082520
0.015808 0.464111 0.076538
0.018982 0.469513 0.069641
0.022125 0.475769 0.061218
0.057037 0.482513 0.051483
0.126129 0.489868 0.040283
0.184753 0.498322 0.027100
0.238464 0.507599 0.013947
0.293365 0.517944 0.002106
0.349030 0.528870 0.000000
0.406128 0.540192 0.000000
0.466766 0.551910 0.000000
0.516876 0.560730 0.000000
0.557648 0.567017 0.000000
0.597900 0.572937 0.000000
0.638062 0.578735 0.000000
0.678192 0.584167 0.000000
0.719116 0.589630 0.000000
0.759583 0.594543 0.000000
0.795990 0.598724 0.000000
0.819763 0.600616 0.000000
0.840424 0.601959 0.000000
0.860962 0.603424 0.000000
0.881256 0.604889 0.000000
0.901489 0.606354 0.000000
0.921539 0.607880 0.000000
0.941437 0.609436 0.000000
0.961182 0.610931 0.000000
0.000000 0.472687 0.115936
0.003174 0.473267 0.109711
0.006317 0.475037 0.103882
0.009491 0.477631 0.098663
0.012665 0.481628 0.093323
0.015808 0.486176 0.087494
0.018982 0.491547 0.080719
0.022125 0.497742 0.072571
0.037323 0.504425 0.063416
0.106262 0.511719 0.052094
0.171661 0.520111 0.038513
0.228973 0.529144 0.023529
0.285034 0.539459 0.008698
0.342010 0.550262 0.000000
0.399445 0.561493 0.000000
0.460388 0.573242 0.000000
0.512970 0.582672 0.000000
0.554443 0.589142 0.000000
0.594818 0.595093 0.000000
0.634949 0.600922 0.000000
0.675018 0.606567 0.000000
0.715790 0.612122 0.000000
0.757111 0.617584 0.000000
0.795837 0.622345 0.000000
0.821686 0.624756 0.000000
0.842377 0.626251 0.000000
0.862946 0.627777 0.000000
0.883301 0.629303 0.000000
0.903564 0.630859 0.000000
0.923584 0.632416 0.000000
0.943512 0.634003 0.000000
0.963348 0.635620 0.000000
0.000000 0.494659 0.127136
0.003174 0.495117 0.121124
0.006317 0.496887 0.115448
0.009491 0.500122 0.110260
0.012665 0.504059 0.105011
0.015808 0.508575 0.099304
0.018982 0.513855 0.092773
0.022125 0.520020 0.084930
0.037323 0.526611 0.076141
0.088684 0.533844 0.065826
0.153778 0.542145 0.052368
0.217743 0.551147 0.037140
0.276154 0.561371 0.018341
0.334137 0.572144 0.006622
0.392548 0.583313 0.000000
0.453644 0.595001 0.000000
0.506683 0.604462 0.000000
0.551300 0.611603 0.000000
0.591736 0.617523 0.000000
0.631897 0.623291 0.000000
0.671906 0.628906 0.000000
0.712524 0.634460 0.000000
0.753632 0.639984 0.000000
0.795441 0.645386 0.000000
0.822205 0.647949 0.000000
0.843994 0.649597 0.000000
0.864502 0.651062 0.000000
0.884857 0.652588 0.000000
0.905121 0.654053 0.000000
0.925171 0.655579 0.000000
0.945068 0.657135 0.000000
0.964844 0.658691 0.000000
0.000000 0.516754 0.139374
0.003174 0.517273 0.133545
0.006317 0.519257 0.127960
0.009491 0.522797 0.122864
0.012665 0.526703 0.117767
0.015808 0.531189 0.112152
0.018982 0.536469 0.105774
0.022125 0.542542 0.098389
0.028717 0.549103 0.090027
0.059387 0.556274 0.080383
0.135742 0.564484 0.068634
0.204926 0.573425 0.053741
0.266663 0.583588 0.035065
0.326263 0.594330 0.013275
0.385376 0.605499 0.001404
0.446960 0.617188 0.000000
0.501678 0.626984 0.000000
0.547791 0.634430 0.000000
0.588593 0.640381 0.000000
0.628815 0.646179 0.000000
0.668884 0.651825 0.000000
0.709320 0.657349 0.000000
0.750305 0.662872 0.000000
0.791962 0.668274 0.000000
0.822998 0.671539 0.000000
0.845551 0.673309 0.000000
0.866089 0.674683 0.000000
0.886414 0.676086 0.000000
0.906677 0.677551 0.000000
0.926697 0.678986 0.000000
0.946564 0.680450 0.000000
0.966370 0.681976 0.000000
0.000000 0.537109 0.152008
0.003174 0.538239 0.146393
0.006317 0.540405 0.141052
0.009491 0.544281 0.136017
0.012665 0.548492 0.131012
0.015808 0.553192 0.125610
0.018982 0.558472 0.119385
0.022125 0.564819 0.112152
0.025299 0.571564 0.104309
0.041473 0.578735 0.095123
0.106201 0.587036 0.084137
0.190857 0.595886 0.071381
0.255157 0.606018 0.053345
0.317474 0.616699 0.031891
0.377960 0.627838 0.008087
0.439972 0.639496 0.000885
0.495972 0.649506 0.000000
0.544189 0.657440 0.000000
0.585266 0.663422 0.000000
0.625702 0.669220 0.000000
0.665802 0.674866 0.000000
0.706238 0.680420 0.000000
0.747040 0.685944 0.000000
0.788605 0.691315 0.000000
0.820953 0.694885 0.000000
0.847015 0.697174 0.000000
0.867554 0.698517 0.000000
0.887939 0.699829 0.000000
0.908173 0.701202 0.000000
0.928223 0.702576 0.000000
0.948120 0.703979 0.000000
0.967896 0.705414 0.000000
0.000000 0.553223 0.165344
0.003174 0.555786 0.159973
0.006317 0.558685 0.154816
0.009491 0.562988 0.150085
0.012665 0.567719 0.145264
0.015808 0.572784 0.139954
0.018982 0.578857 0.133972
0.022125 0.585724 0.126984
0.025299 0.593018 0.119354
0.028473 0.601196 0.110718
0.090729 0.609619 0.100372
0.172760 0.618622 0.088562
0.243408 0.628693 0.073578
0.307678 0.639343 0.052948
0.370056 0.650421 0.029846
0.432953 0.662079 0.006317
0.489838 0.672180 0.000000
0.540527 0.680634 0.000000
0.581818 0.686615 0.000000
0.622406 0.692413 0.000000
0.662720 0.698090 0.000000
0.703125 0.703644 0.000000
0.743896 0.709167 0.000000
0.785278 0.714600 0.000000
0.819763 0.718506 0.000000
0.848419 0.721313 0.000000
0.868958 0.722534 0.000000
0.889374 0.723846 0.000000
0.909637 0.725159 0.000000
0.929718 0.726471 0.000000
0.949615 0.727844 0.000000
0.969391 0.729218 0.000000
0.000000 0.568573 0.179230
0.003174 0.571869 0.174072
0.006317 0.575134 0.169159
0.009491 0.579498 0.164612
0.012665 0.584167 0.159973
0.015808 0.589386 0.154907
0.018982 0.595490 0.149139
0.022125 0.602386 0.142731
0.025299 0.609833 0.135437
0.028473 0.617950 0.127350
0.074371 0.627167 0.118195
0.155548 0.636475 0.107208
0.230988 0.647186 0.093781
0.298553 0.658569 0.077423
0.362091 0.669861 0.055176
0.425720 0.682404 0.029053
0.484314 0.693481 0.005768
0.536346 0.702515 0.000000
0.578186 0.709473 0.000000
0.619019 0.715546 0.000000
0.659515 0.721466 0.000000
0.699982 0.727020 0.000000
0.740692 0.732513 0.000000
0.782013 0.737976 0.000000
0.819733 0.742554 0.000000
0.849548 0.745514 0.000000
0.870148 0.746735 0.000000
0.890594 0.747955 0.000000
0.910919 0.749207 0.000000
0.931000 0.750488 0.000000
0.950958 0.751801 0.000000
0.970764 0.753113 0.000000
0.000000 0.583710 0.193481
0.003174 0.587402 0.188477
0.006317 0.591187 0.183746
0.009491 0.595367 0.179413
0.012665 0.599976 0.174927
0.015808 0.605103 0.170074
0.018982 0.611084 0.164581
0.022125 0.617950 0.158386
0.025299 0.625214 0.151764
0.028473 0.633209 0.144196
0.069489 0.642365 0.135590
0.137939 0.652191 0.126068
0.217224 0.663391 0.113770
0.288574 0.675171 0.099243
0.354065 0.687439 0.081879
0.418182 0.700317 0.055939
0.477753 0.712097 0.030182
0.531952 0.722534 0.007172
0.574005 0.729797 0.000610
0.615204 0.736694 0.000000
0.655945 0.743134 0.000000
0.696472 0.748993 0.000000
0.737213 0.754669 0.000000
0.778503 0.760132 0.000000
0.817017 0.765045 0.000000
0.850372 0.768860 0.000000
0.871002 0.770050 0.000000
0.891541 0.771362 0.000000
0.911896 0.772644 0.000000
0.932037 0.773956 0.000000
0.952057 0.775360 0.000000
0.971924 0.776611 0.000000
0.000000 0.599030 0.208435
0.003174 0.603363 0.203735
0.006317 0.607269 0.199158
0.009491 0.611298 0.194977
0.012665 0.615906 0.190643
0.015808 0.620972 0.185913
0.018982 0.626831 0.180634
0.022125 0.633545 0.174744
0.025299 0.640717 0.168365
0.028473 0.648529 0.161469
0.057404 0.657562 0.153381
0.113678 0.667328 0.144379
0.205841 0.678284 0.133942
0.278961 0.689972 0.121002
0.346191 0.702118 0.105927
0.411041 0.714813 0.087372
0.471405 0.726654 0.062134
0.527130 0.737335 0.037201
0.569244 0.744537 0.010376
0.610474 0.751495 0.002411
0.651337 0.758209 0.000000
0.691895 0.764740 0.000000
0.732635 0.770874 0.000000
0.773895 0.777222 0.000000
0.814697 0.783081 0.000000
0.849884 0.787689 0.000000
0.870789 0.789673 0.000000
0.891388 0.791382 0.000000
0.911896 0.793091 0.000000
0.932251 0.795013 0.000000
0.952393 0.796692 0.000000
0.972382 0.798401 0.000000
0.000000 0.615112 0.223938
0.003174 0.619263 0.219452
0.006317 0.623413 0.215088
0.009491 0.627380 0.210999
0.012665 0.631897 0.206787
0.015808 0.636871 0.202271
0.018982 0.642670 0.197144
0.022125 0.649231 0.191559
0.025299 0.656311 0.185455
0.028473 0.663971 0.178772
0.034485 0.672882 0.171448
0.085754 0.682556 0.163025
0.189545 0.693420 0.153259
0.269714 0.704895 0.142334
0.338135 0.716919 0.128937
