luts/胶片颗粒质感电影.cube
#Created by: Adobe Photoshop Export Color Lookup Plugin
#Copyright: (C) Copyright 2018 https://www.presetpro.com and Tim Martin
TITLE "Presetpro - Film Roll"
#LUT size
LUT_3D_SIZE 5
#data domain
#LUT data points
DOMAIN_MIN 0.000000 0.000000 0.000000
DOMAIN_MAX 0.903226 0.903226 0.903226
0.009827 0.006714 0.008881
0.262512 0.018036 0.002472
0.539185 0.000000 0.000000
0.687286 0.000000 0.000000
0.778931 0.000000 0.000000
0.000000 0.171753 0.034729
0.148315 0.185455 0.013336
0.450195 0.229340 0.000000
0.696167 0.247009 0.000000
0.839508 0.260437 0.000000
0.000000 0.361237 0.072968
0.080780 0.382111 0.034943
0.430786 0.442200 0.000000
0.728394 0.481384 0.000000
0.887329 0.493683 0.000000
0.000000 0.516754 0.139374
0.022125 0.542542 0.098389
0.385376 0.605499 0.001404
0.709320 0.657349 0.000000
0.906677 0.677551 0.000000
0.000000 0.631561 0.239624
0.022125 0.665039 0.208466
0.330017 0.731842 0.151093
0.682556 0.794281 0.017609
0.909546 0.825287 0.000000
0.095795 0.005463 0.213593
0.429535 0.000000 0.162689
0.605774 0.000000 0.128784
0.731262 0.000000 0.100464
0.813385 0.000000 0.079407
0.000000 0.188019 0.242340
0.169281 0.204102 0.212372
0.496704 0.233490 0.179504
0.729004 0.241058 0.139832
0.863800 0.251953 0.102203
0.000000 0.393921 0.293060
0.048798 0.415924 0.265198
0.469025 0.470154 0.227448
0.754639 0.497589 0.173889
0.910675 0.506226 0.118378
0.000000 0.555023 0.341614
0.022125 0.584991 0.320038
0.396454 0.646698 0.287109
0.727509 0.690216 0.237915
0.919678 0.704681 0.181519
0.000000 0.670166 0.402496
0.022125 0.704620 0.384003
0.323578 0.772949 0.357300
0.687775 0.830231 0.317627
0.913269 0.858185 0.276215
0.405762 0.000000 0.440094
0.669769 0.000000 0.420471
0.679504 0.000000 0.378357
0.766724 0.000000 0.360107
0.845398 0.000000 0.346527
0.000000 0.196503 0.458862
0.239624 0.215912 0.457916
0.553131 0.233521 0.443695
0.759277 0.237000 0.417511
0.884552 0.248871 0.396729
0.000000 0.425262 0.518341
0.067657 0.452759 0.514374
0.501984 0.499298 0.505676
0.779480 0.521362 0.476440
0.931213 0.528473 0.448364
0.000000 0.599182 0.558105
0.022125 0.630707 0.553284
0.437012 0.692657 0.549469
0.752441 0.726746 0.523895
0.929474 0.736542 0.493073
0.000000 0.717255 0.592560
0.022125 0.752899 0.588745
0.350983 0.822693 0.584869
0.700653 0.871521 0.568787
0.915131 0.894775 0.544830
0.615479 0.000000 0.579376
0.726868 0.000000 0.571930
0.780579 0.000000 0.550873
0.796326 0.000000 0.539459
0.864624 0.000000 0.536560
0.151459 0.187073 0.623199
0.384460 0.201660 0.637726
0.634216 0.204742 0.633057
0.788452 0.207489 0.616852
0.895996 0.223236 0.604156
0.000000 0.447906 0.693695
0.234406 0.476898 0.705933
0.566376 0.509216 0.705627
0.801270 0.525513 0.689606
0.949493 0.533752 0.671082
0.000000 0.636200 0.732178
0.022125 0.669525 0.742340
0.493408 0.717438 0.746582
0.785645 0.746063 0.731873
0.942017 0.753540 0.711182
0.000000 0.762787 0.756775
0.022125 0.800690 0.767120
0.420624 0.861481 0.774689
0.738312 0.901825 0.764282
0.923218 0.918793 0.744385
0.708191 0.000000 0.665466
0.769104 0.000000 0.659393
0.812988 0.000000 0.649750
0.821564 0.000000 0.629883
0.869843 0.000000 0.650787
0.371460 0.158600 0.729553
0.515381 0.157806 0.734283
0.687378 0.149841 0.736450
0.822357 0.150116 0.735413
0.905884 0.175293 0.734619
0.205444 0.466248 0.809448
0.431244 0.487946 0.820953
0.659760 0.506592 0.825745
0.831879 0.516571 0.822052
0.960052 0.525208 0.816132
0.000000 0.669556 0.847870
0.305115 0.701019 0.860321
0.584015 0.729462 0.866028
0.817139 0.750183 0.865021
0.962433 0.758057 0.857727
0.000000 0.807587 0.870392
0.107758 0.843719 0.881622
0.513092 0.884491 0.889160
0.789368 0.919159 0.890533
0.940948 0.931671 0.883240
