luts/胶片颗粒质感电影.cube
#Created by: Adobe Photoshop Export Color Lookup Plugin
#Copyright: (C) Copyright 2018 https://www.presetpro.com and Tim Martin
TITLE "Presetpro - Film Roll"
#LUT size
LUT_3D_SIZE 8
#data domain
#LUT data points
DOMAIN_MIN 0.000000 0.000000 0.000000
DOMAIN_MAX 0.903226 0.903226 0.903226
0.009827 0.006714 0.008881
0.125000 0.014862 0.008606
0.312469 0.016724 0.000000
0.474548 0.001862 0.000000
0.582520 0.000000 0.000000
0.667419 0.000000 0.000000
0.729492 0.000000 0.000000
0.778931 0.000000 0.000000
0.007507 0.099365 0.020020
0.076996 0.099335 0.014618
0.187622 0.117371 0.009033
0.377563 0.138580 0.000000
0.542664 0.143890 0.000000
0.658264 0.143982 0.000000
0.744171 0.146698 0.000000
0.807190 0.155304 0.000000
0.000000 0.197906 0.040283
0.059052 0.199402 0.025299
0.176819 0.218445 0.012482
0.351929 0.248138 0.000000
0.529480 0.269104 0.000000
0.681091 0.281067 0.000000
0.767792 0.287628 0.000000
0.850769 0.295593 0.000000
0.000000 0.308289 0.062469
0.012665 0.313721 0.042511
0.153992 0.335266 0.021759
0.332092 0.368591 0.000000
0.529205 0.399811 0.000000
0.691620 0.418610 0.000000
0.796204 0.427399 0.000000
0.878571 0.434387 0.000000
0.000000 0.407654 0.087341
0.012665 0.415863 0.064117
0.101013 0.438904 0.035095
0.307526 0.473145 0.000824
0.522675 0.512085 0.000000
0.683167 0.533081 0.000000
0.813538 0.546051 0.000000
0.895142 0.551544 0.000000
0.000000 0.494659 0.127136
0.012665 0.504059 0.105011
0.037323 0.526611 0.076141
0.276154 0.561371 0.018341
0.506683 0.604462 0.000000
0.671906 0.628906 0.000000
0.822205 0.647949 0.000000
0.905121 0.654053 0.000000
0.000000 0.568573 0.179230
0.012665 0.584167 0.159973
0.025299 0.609833 0.135437
0.230988 0.647186 0.093781
0.484314 0.693481 0.005768
0.659515 0.721466 0.000000
0.819733 0.742554 0.000000
0.910919 0.749207 0.000000
0.000000 0.631561 0.239624
0.012665 0.647949 0.223236
0.025299 0.671967 0.202728
0.168060 0.708649 0.172577
0.458771 0.756104 0.121338
0.642029 0.787781 0.038147
0.805786 0.813354 0.000000
0.909546 0.825287 0.000000
0.034363 0.009949 0.110931
0.252289 0.005829 0.081726
0.391876 0.000000 0.062653
0.533234 0.000000 0.041595
0.621277 0.000000 0.025146
0.701111 0.000000 0.016174
0.751099 0.000000 0.012665
0.798492 0.000000 0.012665
0.001740 0.103821 0.129486
0.085358 0.107544 0.107574
0.216919 0.122925 0.096313
0.413757 0.136230 0.075378
0.581146 0.134613 0.045807
0.682037 0.131805 0.025574
0.768280 0.132263 0.013031
0.823303 0.141571 0.012665
0.000000 0.206573 0.153809
0.050964 0.209961 0.131653
0.188812 0.227051 0.117523
0.385590 0.254150 0.094788
0.557037 0.269440 0.060486
0.700287 0.277679 0.026978
0.786621 0.282898 0.012665
0.864471 0.289917 0.012665
0.000000 0.324158 0.180847
0.012665 0.329468 0.158539
0.152435 0.348663 0.141235
0.352966 0.380005 0.114685
0.547882 0.406036 0.070221
0.714844 0.422729 0.027435
0.809937 0.429077 0.012665
0.893158 0.435516 0.012665
0.000000 0.430084 0.211487
0.012665 0.437958 0.189789
0.071014 0.458160 0.169891
0.317261 0.490784 0.141602
0.534760 0.524200 0.092255
0.699493 0.542816 0.043732
0.823669 0.552979 0.012665
0.906342 0.557678 0.012665
0.000000 0.517303 0.248047
0.012665 0.528290 0.228943
0.025513 0.549652 0.208588
0.273560 0.583557 0.180908
0.516602 0.623749 0.136078
0.682617 0.645416 0.074646
0.830658 0.661774 0.025482
0.913910 0.666687 0.012665
0.000000 0.592499 0.286163
0.012665 0.609955 0.272217
0.025299 0.635406 0.255493
0.213287 0.671509 0.231293
0.488770 0.715546 0.192078
0.664581 0.739166 0.143768
0.825958 0.758331 0.078491
0.915985 0.763641 0.052612
0.000000 0.651978 0.325958
0.012665 0.669159 0.315369
0.025299 0.693970 0.302948
0.149841 0.731964 0.285980
0.458099 0.778656 0.258423
0.643250 0.808350 0.223877
0.810699 0.832672 0.181030
0.912109 0.842926 0.135559
0.126801 0.002594 0.248505
0.460754 0.000000 0.233765
0.483887 0.000000 0.194855
0.575073 0.000000 0.175201
0.655182 0.000000 0.158600
0.724731 0.000000 0.143311
0.772644 0.000000 0.131592
0.818817 0.000000 0.121246
0.001892 0.109528 0.251221
0.101685 0.117188 0.237061
0.253815 0.130646 0.224243
0.446350 0.137634 0.206665
0.610535 0.131165 0.186615
0.704376 0.126617 0.168396
0.789398 0.125397 0.151794
0.840057 0.135681 0.138977
0.000000 0.218719 0.280914
0.041168 0.226257 0.265808
0.205658 0.242554 0.253510
0.412598 0.264587 0.236115
0.582642 0.275146 0.215179
0.716980 0.280396 0.193054
0.804504 0.285278 0.173431
0.878540 0.292236 0.155273
0.000000 0.341736 0.310638
0.012665 0.350922 0.295532
0.146973 0.369537 0.284790
0.375763 0.399567 0.266724
0.566437 0.420349 0.243286
0.735138 0.434479 0.217072
0.824127 0.438782 0.193848
0.908447 0.444305 0.171112
0.000000 0.451111 0.337799
0.012665 0.462799 0.323669
0.038483 0.483124 0.311646
0.326660 0.515717 0.297485
0.545959 0.543793 0.273132
0.716156 0.560425 0.245209
0.833588 0.567871 0.219177
0.917938 0.571686 0.195190
0.000000 0.538940 0.365356
0.012665 0.553711 0.352936
0.025299 0.575592 0.340637
0.271118 0.610291 0.325867
0.521332 0.647125 0.306091
0.692932 0.667847 0.282410
0.836670 0.681335 0.253601
0.921844 0.685364 0.228577
0.000000 0.619232 0.397156
0.012665 0.636902 0.385956
0.025299 0.660614 0.373840
0.196045 0.697510 0.359009
0.494873 0.739197 0.339203
0.669769 0.760712 0.316650
0.832306 0.778961 0.292664
0.919891 0.783356 0.272797
0.000000 0.677185 0.431885
0.012665 0.694305 0.421936
0.025299 0.718536 0.410736
0.139771 0.756592 0.396881
0.462921 0.801880 0.378540
0.646027 0.829437 0.356720
0.814453 0.853210 0.333435
0.913696 0.862854 0.312805
0.317963 0.000000 0.386383
0.545898 0.000000 0.376678
0.638336 0.000000 0.352020
0.621918 0.000000 0.315979
0.691833 0.000000 0.305328
0.746399 0.000000 0.294678
0.792603 0.000000 0.286224
0.838196 0.000000 0.279694
0.019653 0.108398 0.380127
0.141815 0.117615 0.372314
0.311493 0.129242 0.364716
0.485626 0.130096 0.351715
0.636688 0.120697 0.337555
0.726013 0.115448 0.323944
0.805725 0.115387 0.312836
0.855652 0.128082 0.304108
0.000000 0.227692 0.414795
0.064575 0.237183 0.405365
0.242676 0.252350 0.396149
0.444794 0.269440 0.385345
0.612579 0.277649 0.370605
0.732758 0.281372 0.355438
0.820831 0.286194 0.342010
0.890381 0.294312 0.330719
0.000000 0.358276 0.448578
0.012665 0.370392 0.439972
0.168060 0.388733 0.429626
0.412994 0.417786 0.419403
0.588348 0.433105 0.403229
0.747345 0.444000 0.386536
0.836212 0.448090 0.370514
0.921448 0.453827 0.356384
0.000000 0.473877 0.475800
0.012665 0.487946 0.469513
0.040070 0.507507 0.458496
0.353760 0.538452 0.447083
0.561707 0.561615 0.430725
0.735626 0.577423 0.412903
0.842133 0.582733 0.395203
0.927765 0.586517 0.379364
0.000000 0.566132 0.498962
0.012665 0.581665 0.493622
0.025299 0.603546 0.486145
0.286865 0.637848 0.474426
0.531372 0.668915 0.458344
0.706879 0.688232 0.439758
0.841675 0.699493 0.421051
0.928131 0.703522 0.404022
0.000000 0.649139 0.522491
0.012665 0.666473 0.517731
0.025299 0.690277 0.512268
0.195862 0.727448 0.504547
0.499420 0.762146 0.488647
0.678680 0.782043 0.469666
0.835968 0.797516 0.450378
0.923004 0.800964 0.432556
0.000000 0.704498 0.543213
0.012665 0.722595 0.540405
0.025299 0.747772 0.536804
0.139435 0.787079 0.532349
0.468384 0.829376 0.521973
0.651154 0.854095 0.503296
0.818878 0.875854 0.484192
0.914795 0.883881 0.465820
0.491943 0.000000 0.493347
0.617371 0.000000 0.481812
0.705383 0.000000 0.468140
0.695770 0.000000 0.433929
0.721588 0.000000 0.428711
0.764771 0.000000 0.425995
0.807800 0.000000 0.418610
0.852173 0.000000 0.413025
0.094421 0.097717 0.481201
0.215881 0.106537 0.482849
0.381561 0.111145 0.484192
0.535065 0.104187 0.478912
0.659058 0.090698 0.471344
0.746582 0.083862 0.462463
0.817291 0.087616 0.452576
0.866333 0.106018 0.444000
0.001404 0.230072 0.519440
0.133881 0.239471 0.518616
0.306091 0.254517 0.520538
0.484131 0.266144 0.517761
0.645142 0.272247 0.511444
0.748138 0.275177 0.501404
0.835297 0.280243 0.489563
0.897919 0.289124 0.478699
0.000000 0.369812 0.556763
0.012665 0.382416 0.555237
0.227814 0.401855 0.555939
0.451569 0.425354 0.555298
0.617279 0.438110 0.547974
0.759888 0.447021 0.538910
0.847534 0.451324 0.525299
0.930969 0.457184 0.512177
0.000000 0.491943 0.584808
0.012665 0.505402 0.582550
0.089722 0.526215 0.581970
0.403168 0.556976 0.581970
0.585083 0.574738 0.574432
0.758453 0.589996 0.565704
0.850586 0.593658 0.553436
0.936493 0.597351 0.538635
0.000000 0.587799 0.606079
0.012665 0.603180 0.603882
0.034973 0.626251 0.602844
0.333527 0.661011 0.602325
0.550537 0.686584 0.595917
0.726837 0.705658 0.586823
0.847260 0.714600 0.575714
0.934174 0.718842 0.563660
0.000000 0.673859 0.626312
0.012665 0.690735 0.624298
0.025299 0.715240 0.622955
0.253357 0.750519 0.621735
0.515503 0.779938 0.615814
0.694611 0.799744 0.606354
0.838928 0.812927 0.595459
0.926392 0.816925 0.583954
0.000000 0.730713 0.643738
0.012665 0.748108 0.642029
0.025299 0.774078 0.640930
0.180908 0.812988 0.640045
0.482880 0.849457 0.635101
0.664917 0.874176 0.625946
0.827179 0.894897 0.615662
0.916840 0.902252 0.604004
0.593536 0.000000 0.565643
0.676147 0.000000 0.562439
0.734863 0.000000 0.556580
0.782104 0.000000 0.549469
0.749695 0.000000 0.517090
0.782104 0.000000 0.517609
0.821747 0.000000 0.515259
0.863068 0.000000 0.513702
0.195618 0.071503 0.576080
0.327148 0.073303 0.585663
0.449677 0.067963 0.583008
0.592865 0.058350 0.578064
0.683319 0.053009 0.568787
0.767212 0.051056 0.561218
0.826141 0.057343 0.554596
0.874329 0.068390 0.549652
0.091339 0.226776 0.617584
0.226013 0.236542 0.624603
0.389984 0.248779 0.627167
0.531403 0.254578 0.621613
0.678619 0.258057 0.615051
0.764343 0.260742 0.605072
0.848328 0.266174 0.596985
0.903442 0.276245 0.589539
0.000000 0.379364 0.660034
0.102112 0.391479 0.664978
0.313934 0.409271 0.667175
0.495544 0.425140 0.664276
0.655304 0.436310 0.657410
0.773651 0.442444 0.647461
0.859680 0.447144 0.636963
0.936768 0.453369 0.627747
0.000000 0.507477 0.689453
0.012665 0.521454 0.693848
0.213348 0.542389 0.695221
0.452026 0.566803 0.694427
0.618896 0.581451 0.686920
0.772614 0.593140 0.678009
0.861298 0.596558 0.666168
0.946289 0.600708 0.655548
0.000000 0.609192 0.709991
0.012665 0.625061 0.714661
0.052155 0.648682 0.716156
0.397064 0.679932 0.716492
0.580902 0.699188 0.709320
0.755554 0.716736 0.701080
0.856018 0.722198 0.689148
0.942200 0.726318 0.677826
0.000000 0.698334 0.727478
0.012665 0.715454 0.731903
0.025299 0.739471 0.734955
0.333130 0.772858 0.735260
0.542969 0.794281 0.728394
0.719757 0.812683 0.719788
0.845673 0.822144 0.708679
0.932648 0.825867 0.696869
0.000000 0.757202 0.740051
0.012665 0.775269 0.744324
0.025299 0.802612 0.750427
0.254333 0.840179 0.751587
0.507172 0.868713 0.746033
0.686920 0.891815 0.737823
0.833679 0.908844 0.727753
0.921753 0.915558 0.715912
0.667755 0.000000 0.618561
0.712250 0.000000 0.614532
0.760681 0.000000 0.609772
0.791473 0.000000 0.603394
0.802643 0.000000 0.590149
0.802979 0.000000 0.589142
0.836182 0.000000 0.598602
0.867523 0.000000 0.600189
0.332550 0.039307 0.638855
0.419952 0.034882 0.642365
0.528595 0.026642 0.646149
0.632080 0.014954 0.647552
0.710419 0.014099 0.647034
0.786957 0.013245 0.647400
0.834961 0.014832 0.645050
0.882019 0.030304 0.643219
0.219757 0.221375 0.682434
0.337921 0.229095 0.691223
0.455841 0.234192 0.696350
0.588287 0.236755 0.699829
0.700775 0.237579 0.700043
0.782959 0.240082 0.697693
0.859985 0.246155 0.693939
0.909058 0.257751 0.688934
0.086212 0.382874 0.726318
0.248505 0.395142 0.734680
0.409790 0.410034 0.743713
0.547729 0.420044 0.746796
0.696198 0.429535 0.748993
0.790253 0.434052 0.745697
0.873840 0.439270 0.739838
0.941345 0.445709 0.732941
0.000000 0.519104 0.756989
0.094635 0.533844 0.764526
0.334625 0.554169 0.773956
0.505493 0.570740 0.778839
0.662170 0.584503 0.780762
0.789429 0.593140 0.779327
0.874207 0.596832 0.772247
0.957336 0.601288 0.764374
0.000000 0.626373 0.777618
0.012665 0.643127 0.784454
0.231171 0.666626 0.793304
0.457977 0.690765 0.800049
0.621521 0.707642 0.801788
0.779602 0.722961 0.801941
0.867249 0.727325 0.795959
0.952148 0.731659 0.787415
0.000000 0.717834 0.793945
0.012665 0.734650 0.799927
0.064880 0.758423 0.807831
0.406311 0.786041 0.815094
0.582001 0.804382 0.816681
0.753754 0.822632 0.817261
0.855194 0.829010 0.813202
0.940857 0.832977 0.804382
0.000000 0.780640 0.805298
0.012665 0.799530 0.811127
0.044861 0.826202 0.818695
0.353516 0.859528 0.826569
0.545410 0.883240 0.828735
0.718933 0.906097 0.829559
0.842194 0.919739 0.826874
0.928894 0.926941 0.821014
0.708191 0.000000 0.665466
0.746216 0.000000 0.662506
0.775299 0.000000 0.658142
0.800507 0.000000 0.652557
0.824615 0.000000 0.646973
0.819427 0.000000 0.628906
0.841553 0.000000 0.641449
0.869843 0.000000 0.650787
0.445068 0.012665 0.688263
0.523865 0.012665 0.691132
0.601440 0.012665 0.692963
0.668335 0.012665 0.692841
0.740814 0.012665 0.693634
0.797577 0.012665 0.694153
0.843048 0.012665 0.695221
0.888428 0.012665 0.697998
0.355499 0.209686 0.743652
0.432190 0.211639 0.746277
0.527100 0.213196 0.749176
0.646057 0.212555 0.752075
0.724701 0.212738 0.750458
0.802856 0.214874 0.749451
0.867249 0.222046 0.748596
0.913971 0.235168 0.747894
0.262695 0.385925 0.790497
0.381317 0.396393 0.797821
0.482880 0.403198 0.800720
0.608185 0.411377 0.803558
0.729889 0.417786 0.804352
0.809296 0.421509 0.801361
0.889954 0.427032 0.798981
0.946198 0.433655 0.795929
0.124329 0.532135 0.822968
0.290375 0.545929 0.830200
0.433960 0.559784 0.836060
0.565857 0.571014 0.838501
0.714355 0.583221 0.840607
0.808502 0.587891 0.837524
0.890289 0.591858 0.833740
0.966980 0.596405 0.830109
0.000000 0.646210 0.843994
0.160614 0.662170 0.850739
0.374298 0.682434 0.858490
0.520355 0.696838 0.861053
0.672760 0.712067 0.862946
0.799591 0.722504 0.861786
0.882904 0.726685 0.857544
0.965179 0.731323 0.853546
0.000000 0.738922 0.859375
0.019318 0.755066 0.865417
0.293854 0.776794 0.872833
0.474426 0.794464 0.876312
0.632080 0.810638 0.877838
0.784393 0.825531 0.878021
0.870087 0.829651 0.873566
0.953278 0.833954 0.869202
0.000000 0.807587 0.870392
0.012665 0.825806 0.876221
0.204865 0.850677 0.883606
0.430206 0.874359 0.888184
0.594482 0.894867 0.889984
0.761322 0.916260 0.891205
0.856567 0.925049 0.887512
0.940948 0.931671 0.883240
